;FLAVOR:Marlin
;TIME:10077
;Filament used: 6.08551m
;Layer height: 0.2
;MINX:71.2
;MINY:84.2
;MINZ:0.2
;MAXX:148.8
;MAXY:135.8
;MAXZ:47
;Generated with Cura_SteamEngine main
M140 S50
M105
M190 S50
M104 S200
M105
M109 S200
M82 ;absolute extrusion mode
M201 X500.00 Y500.00 Z100.00 E5000.00 ;Setup machine max acceleration
M203 X500.00 Y500.00 Z10.00 E50.00 ;Setup machine max feedrate
M204 P500.00 R1000.00 T500.00 ;Setup Print/Retract/Travel acceleration
M205 X8.00 Y8.00 Z0.40 E5.00 ;Setup Jerk
M220 S100 ;Reset Feedrate
M221 S100 ;Reset Flowrate

G28 ;Home
G29 ;Auto Bed Leveling
M420 S1 Z2 ;Enable ABL using saved Mesh and Fade Height

G92 E0 ;Reset Extruder
G1 Z2.0 F3000 ;Move Z Axis up
G1 X10.1 Y20 Z0.28 F5000.0 ;Move to start position
G1 X10.1 Y200.0 Z0.28 F1500.0 E15 ;Draw the first line
G1 X10.4 Y200.0 Z0.28 F5000.0 ;Move to side a little
G1 X10.4 Y20 Z0.28 F1500.0 E30 ;Draw the second line
G92 E0 ;Reset Extruder
G1 Z2.0 F3000 ;Move Z Axis up
G92 E0
G92 E0
G1 F2700 E-5
;LAYER_COUNT:235
;LAYER:0
M107
G0 F6000 X91.8 Y106.3 Z0.2
;TYPE:SKIRT
G1 F2700 E0
G1 F1200 X91.8 Y113.7 E0.24612
G1 X114.2 Y113.7 E0.99115
G1 X114.2 Y106.3 E1.23728
G1 X91.8 Y106.3 E1.9823
G0 F6000 X91.4 Y105.9
G1 F1200 X91.4 Y114.1 E2.25504
G1 X114.6 Y114.1 E3.02667
G1 X114.6 Y105.9 E3.29941
G1 X91.4 Y105.9 E4.07104
G0 F6000 X91 Y105.5
G1 F1200 X91 Y114.5 E4.37038
G1 X115 Y114.5 E5.16862
G1 X115 Y105.5 E5.46797
G1 X91 Y105.5 E6.26621
G0 F6000 X90.6 Y105.1
G1 F1200 X90.6 Y114.9 E6.59216
G1 X115.4 Y114.9 E7.41701
G1 X115.4 Y105.1 E7.74296
G1 X90.6 Y105.1 E8.56781
G0 F6000 X90.2 Y104.7
G1 F1200 X90.2 Y115.3 E8.92037
G1 X115.8 Y115.3 E9.77183
G1 X115.8 Y104.7 E10.12439
G1 X90.2 Y104.7 E10.97584
G0 F6000 X89.8 Y104.3
G1 F1200 X89.8 Y115.7 E11.35501
G1 X116.2 Y115.7 E12.23308
G1 X116.2 Y104.3 E12.61224
G1 X89.8 Y104.3 E13.49031
G0 F6000 X89.4 Y103.9
G1 F1200 X89.4 Y116.1 E13.89608
G1 X116.6 Y116.1 E14.80076
G1 X116.6 Y103.9 E15.20653
G1 X89.4 Y103.9 E16.11121
G0 F6000 X89 Y103.5
G1 F1200 X89 Y116.5 E16.54359
G1 X117 Y116.5 E17.47487
G1 X117 Y103.5 E17.90726
G1 X89 Y103.5 E18.83854
G0 F6000 X88.6 Y103.1
G1 F1200 X88.6 Y116.9 E19.29753
G1 X117.4 Y116.9 E20.25542
G1 X117.4 Y103.1 E20.71441
G1 X88.6 Y103.1 E21.6723
G0 F6000 X88.2 Y102.7
G1 F1200 X88.2 Y117.3 E22.1579
G1 X117.8 Y117.3 E23.1424
G1 X117.8 Y102.7 E23.628
G1 X88.2 Y102.7 E24.6125
G0 F6000 X87.8 Y102.3
G1 F1200 X87.8 Y117.7 E25.12471
G1 X118.2 Y117.7 E26.13581
G1 X118.2 Y102.3 E26.64802
G1 X87.8 Y102.3 E27.65913
G0 F6000 X87.4 Y101.9
G1 F1200 X87.4 Y118.1 E28.19794
G1 X118.6 Y118.1 E29.23566
G1 X118.6 Y101.9 E29.77447
G1 X87.4 Y101.9 E30.81219
G0 F6000 X87 Y101.5
G1 F1200 X87 Y118.5 E31.37761
G1 X119 Y118.5 E32.44194
G1 X119 Y101.5 E33.00736
G1 X87 Y101.5 E34.07168
G0 F6000 X86.6 Y101.1
G1 F1200 X86.6 Y118.9 E34.66371
G1 X119.4 Y118.9 E35.75465
G1 X119.4 Y101.1 E36.34668
G1 X86.6 Y101.1 E37.43761
G0 F6000 X86.2 Y100.7
G1 F1200 X86.2 Y119.3 E38.05625
G1 X119.8 Y119.3 E39.17379
G1 X119.8 Y100.7 E39.79243
G1 X86.2 Y100.7 E40.90997
G0 F6000 X85.8 Y100.3
G1 F1200 X85.8 Y119.7 E41.55521
G1 X120.2 Y119.7 E42.69936
G1 X120.2 Y100.3 E43.34461
G1 X85.8 Y100.3 E44.48876
G0 F6000 X85.4 Y99.9
G1 F1200 X85.4 Y120.1 E45.16061
G1 X120.6 Y120.1 E46.33137
G1 X120.6 Y99.9 E47.00322
G1 X85.4 Y99.9 E48.17398
G0 F6000 X85 Y99.5
G1 F1200 X85 Y120.5 E48.87244
G1 X121 Y120.5 E50.06981
G1 X121 Y99.5 E50.76827
G1 X85 Y99.5 E51.96563
G0 F6000 X84.6 Y99.1
G1 F1200 X84.6 Y120.9 E52.69071
G1 X121.2 Y120.9 E53.90803
G1 X121.4 Y120.937 E53.91479
G1 X121.4 Y99.052 E54.64269
G1 X121.2 Y99.1 E54.64953
G1 X84.6 Y99.1 E55.86685
G0 F6000 X84.2 Y98.864
G1 F1200 X84.2 Y121.136 E56.60762
G1 X84.364 Y121.3 E56.61534
G1 X121.2 Y121.3 E57.84051
G1 X121.319 Y121.339 E57.84467
G1 X121.4 Y121.5 E57.85067
G1 X121.4 Y126.5 E58.01697
G1 X121.361 Y126.619 E58.02113
G1 X121.2 Y126.7 E58.02713
G1 X79 Y126.7 E59.4307
G1 X78.881 Y126.661 E59.43487
G1 X78.8 Y126.5 E59.44086
G1 X78.8 Y93.5 E60.53845
G1 X78.839 Y93.381 E60.54261
G1 X79 Y93.3 E60.54861
G1 X121.2 Y93.3 E61.95218
G1 X121.319 Y93.339 E61.95635
G1 X121.4 Y93.5 E61.96234
G1 X121.4 Y98.5 E62.12864
G1 X121.361 Y98.619 E62.13281
G1 X121.2 Y98.7 E62.1388
G1 X84.364 Y98.7 E63.36397
G1 X84.2 Y98.864 E63.37169
G0 F6000 X83.8 Y98.782
G1 F1200 X83.8 Y121.218 E64.11791
G1 X83.859 Y121.359 E64.123
G1 X84.141 Y121.641 E64.13626
G1 X84.282 Y121.7 E64.14134
G1 X121 Y121.7 E65.36259
G1 X121 Y126.3 E65.51559
G1 X79.2 Y126.3 E66.90586
G1 X79.2 Y93.7 E67.99014
G1 X121 Y93.7 E69.38041
G1 X121 Y98.3 E69.53341
G1 X84.282 Y98.3 E70.75466
G1 X84.141 Y98.359 E70.75974
G1 X83.859 Y98.641 E70.773
G1 X83.8 Y98.782 E70.77809
G0 F6000 X83.4 Y98.782
G1 F1200 X83.4 Y121.218 E71.52431
G1 X83.44 Y121.433 E71.53159
G1 X83.576 Y121.642 E71.53988
G1 X83.858 Y121.924 E71.55314
G1 X84.037 Y122.048 E71.56039
G1 X84.282 Y122.1 E71.56872
G1 X120.6 Y122.1 E72.77666
G1 X120.6 Y125.9 E72.90305
G1 X79.6 Y125.9 E74.26671
G1 X79.6 Y94.1 E75.32439
G1 X120.6 Y94.1 E76.68805
G1 X120.6 Y97.9 E76.81444
G1 X84.282 Y97.9 E78.02238
G1 X84.067 Y97.94 E78.02965
G1 X83.858 Y98.076 E78.03795
G1 X83.576 Y98.358 E78.05121
G1 X83.452 Y98.537 E78.05845
G1 X83.4 Y98.782 E78.06679
G0 F6000 X83 Y98.628
G1 F1200 X83 Y121.218 E78.81813
G1 X83.04 Y121.497 E78.82751
G1 X83.184 Y121.816 E78.83915
G1 X83.575 Y122.207 E78.85754
G1 X83.801 Y122.376 E78.86692
G1 X84.128 Y122.5 E78.87856
G1 X120.2 Y122.5 E80.07832
G1 X120.2 Y125.5 E80.1781
G1 X80 Y125.5 E81.51515
G1 X80 Y94.5 E82.54622
G1 X120.2 Y94.5 E83.88328
G1 X120.2 Y97.5 E83.98306
G1 X84.282 Y97.5 E85.17769
G1 X84.003 Y97.54 E85.18707
G1 X83.684 Y97.684 E85.19871
G1 X83.293 Y98.075 E85.2171
G1 X83.124 Y98.301 E85.22649
G1 X83 Y98.628 E85.23812
G0 F6000 X82 Y96.5
G1 F1200 X82.04 Y96.5 E85.23945
G1 X82 Y96.54 E85.24133
G1 X82 Y96.5 E85.24266
G0 F6000 X81.6 Y96.1
G1 F1200 X83.299 Y96.1 E85.29917
G1 X82.976 Y96.252 E85.31104
G1 X82.444 Y96.662 E85.33338
G1 X82.162 Y96.944 E85.34665
G1 X81.869 Y97.293 E85.3618
G1 X81.6 Y97.761 E85.37976
G1 X81.6 Y96.1 E85.435
G0 F6000 X81.2 Y95.7
G1 F1200 X119 Y95.7 E86.69223
G1 X119 Y96.3 E86.71219
G1 X84.282 Y96.3 E87.86692
G1 X83.865 Y96.34 E87.88085
G1 X83.463 Y96.458 E87.89478
G1 X83.091 Y96.651 E87.90872
G1 X82.726 Y96.944 E87.92429
G1 X82.444 Y97.226 E87.93755
G1 X82.178 Y97.55 E87.9515
G1 X81.977 Y97.917 E87.96541
G1 X81.85 Y98.317 E87.97937
G1 X81.8 Y98.782 E87.99493
G1 X81.8 Y121.218 E88.74115
G1 X81.84 Y121.635 E88.75509
G1 X81.958 Y122.037 E88.76902
G1 X82.151 Y122.409 E88.78296
G1 X82.444 Y122.774 E88.79853
G1 X82.726 Y123.056 E88.81179
G1 X83.05 Y123.322 E88.82573
G1 X83.417 Y123.523 E88.83965
G1 X83.817 Y123.65 E88.85361
G1 X84.282 Y123.7 E88.86916
G1 X119 Y123.7 E90.02389
G1 X119 Y124.3 E90.04385
G1 X81.2 Y124.3 E91.30108
G1 X81.2 Y95.7 E92.25232
G0 F6000 X80.8 Y95.3
G1 F1200 X119.4 Y95.3 E93.53616
G1 X119.4 Y96.7 E93.58272
G1 X84.282 Y96.7 E94.75075
G1 X83.905 Y96.74 E94.76336
G1 X83.545 Y96.858 E94.77596
G1 X83.218 Y97.048 E94.78854
G1 X83.009 Y97.227 E94.7977
G1 X82.727 Y97.509 E94.81096
G1 X82.489 Y97.804 E94.82357
G1 X82.318 Y98.142 E94.83617
G1 X82.221 Y98.508 E94.84876
G1 X82.2 Y98.782 E94.8579
G1 X82.2 Y121.218 E95.60412
G1 X82.24 Y121.595 E95.61673
G1 X82.358 Y121.955 E95.62933
G1 X82.548 Y122.282 E95.64191
G1 X82.727 Y122.491 E95.65106
G1 X83.009 Y122.773 E95.66433
G1 X83.304 Y123.011 E95.67694
G1 X83.642 Y123.182 E95.68953
G1 X84.008 Y123.279 E95.70213
G1 X84.282 Y123.3 E95.71127
G1 X119.4 Y123.3 E96.8793
G1 X119.4 Y124.7 E96.92586
G1 X80.8 Y124.7 E98.2097
G1 X80.8 Y95.3 E99.18755
G0 F6000 X80.4 Y94.9
G1 F1200 X119.8 Y94.9 E100.498
G1 X119.8 Y97.1 E100.57117
G1 X84.282 Y97.1 E101.75251
G1 X83.95 Y97.14 E101.76363
G1 X83.638 Y97.257 E101.77471
G1 X83.292 Y97.51 E101.78897
G1 X83.01 Y97.792 E101.80223
G1 X82.804 Y98.055 E101.81334
G1 X82.665 Y98.359 E101.82446
G1 X82.6 Y98.782 E101.83869
G1 X82.6 Y121.218 E102.58492
G1 X82.64 Y121.55 E102.59604
G1 X82.757 Y121.862 E102.60712
G1 X83.01 Y122.208 E102.62138
G1 X83.292 Y122.49 E102.63464
G1 X83.555 Y122.696 E102.64576
G1 X83.859 Y122.835 E102.65687
G1 X84.282 Y122.9 E102.67111
G1 X119.8 Y122.9 E103.85244
G1 X119.8 Y125.1 E103.92561
G1 X80.4 Y125.1 E105.23606
G1 X80.4 Y94.9 E106.24052
G0 F6000 X78.4 Y93.5
G1 F1200 X78.44 Y93.285 E106.24779
G1 X78.553 Y93.099 E106.25503
G1 X78.726 Y92.966 E106.26229
G1 X79 Y92.9 E106.27166
G1 X121.2 Y92.9 E107.67524
G1 X121.4 Y92.937 E107.68201
G1 X121.4 Y92 E107.71317
G1 X121.44 Y91.785 E107.72044
G1 X121.553 Y91.599 E107.72768
G1 X121.726 Y91.466 E107.73494
G1 X122 Y91.4 E107.74431
G1 X141 Y91.4 E108.37626
G1 X141.215 Y91.44 E108.38353
G1 X141.401 Y91.553 E108.39077
G1 X141.534 Y91.726 E108.39803
G1 X141.6 Y92 E108.4074
G1 X141.6 Y128 E109.60477
G1 X141.56 Y128.215 E109.61204
G1 X141.447 Y128.401 E109.61928
G1 X141.274 Y128.534 E109.62654
G1 X141 Y128.6 E109.63591
G1 X122 Y128.6 E110.26785
G1 X121.785 Y128.56 E110.27513
G1 X121.599 Y128.447 E110.28236
G1 X121.466 Y128.274 E110.28962
G1 X121.4 Y128 E110.299
G1 X121.4 Y127.052 E110.33053
G1 X121.2 Y127.1 E110.33737
G1 X79 Y127.1 E111.74095
G1 X78.785 Y127.06 E111.74822
G1 X78.599 Y126.947 E111.75546
G1 X78.466 Y126.774 E111.76272
G1 X78.4 Y126.5 E111.77209
G1 X78.4 Y93.5 E112.86967
G0 F6000 X78 Y93.5
G1 F1200 X78.04 Y93.221 E112.87905
G1 X78.156 Y92.964 E112.88843
G1 X78.339 Y92.749 E112.89782
G1 X78.575 Y92.595 E112.90719
G1 X78.884 Y92.5 E112.91794
G1 X121 Y92.5 E114.31873
G1 X121 Y92 E114.33536
G1 X121.04 Y91.721 E114.34473
G1 X121.156 Y91.464 E114.35411
G1 X121.339 Y91.249 E114.3635
G1 X121.575 Y91.095 E114.37287
G1 X121.884 Y91 E114.38362
G1 X141 Y91 E115.01943
G1 X141.279 Y91.04 E115.0288
G1 X141.536 Y91.156 E115.03818
G1 X141.751 Y91.339 E115.04757
G1 X141.905 Y91.575 E115.05694
G1 X142 Y91.884 E115.06769
G1 X142 Y128 E116.26892
G1 X141.96 Y128.279 E116.27829
G1 X141.844 Y128.536 E116.28767
G1 X141.661 Y128.751 E116.29706
G1 X141.425 Y128.905 E116.30643
G1 X141.116 Y129 E116.31718
G1 X122 Y129 E116.95299
G1 X121.721 Y128.96 E116.96236
G1 X121.464 Y128.844 E116.97174
G1 X121.249 Y128.661 E116.98113
G1 X121.095 Y128.425 E116.9905
G1 X121 Y128.116 E117.00125
G1 X121 Y127.5 E117.02174
G1 X79 Y127.5 E118.41867
G1 X78.721 Y127.46 E118.42804
G1 X78.464 Y127.344 E118.43742
G1 X78.249 Y127.161 E118.44681
G1 X78.095 Y126.925 E118.45618
G1 X78 Y126.616 E118.46694
G1 X78 Y93.5 E119.56838
G0 F6000 X77.6 Y93.5
G1 F1200 X77.64 Y93.168 E119.5795
G1 X77.757 Y92.856 E119.59058
G1 X77.945 Y92.579 E119.60172
G1 X78.193 Y92.356 E119.61281
G1 X78.487 Y92.197 E119.62393
G1 X78.861 Y92.1 E119.63678
G1 X120.588 Y92.1 E121.02462
G1 X120.64 Y91.668 E121.0391
G1 X120.757 Y91.356 E121.05018
G1 X120.945 Y91.079 E121.06131
G1 X121.193 Y90.856 E121.07241
G1 X121.487 Y90.697 E121.08352
G1 X121.861 Y90.6 E121.09637
G1 X141 Y90.6 E121.73294
G1 X141.332 Y90.64 E121.74406
G1 X141.644 Y90.757 E121.75514
G1 X141.921 Y90.945 E121.76628
G1 X142.144 Y91.193 E121.77737
G1 X142.303 Y91.487 E121.78849
G1 X142.4 Y91.861 E121.80134
G1 X142.4 Y128 E123.00333
G1 X142.36 Y128.332 E123.01445
G1 X142.243 Y128.644 E123.02553
G1 X142.055 Y128.921 E123.03667
G1 X141.807 Y129.144 E123.04776
G1 X141.513 Y129.303 E123.05888
G1 X141.139 Y129.4 E123.07173
G1 X122 Y129.4 E123.70829
G1 X121.668 Y129.36 E123.71942
G1 X121.356 Y129.243 E123.7305
G1 X121.079 Y129.055 E123.74163
G1 X120.856 Y128.807 E123.75273
G1 X120.697 Y128.513 E123.76384
G1 X120.613 Y128.189 E123.77498
G1 X120.6 Y127.9 E123.7846
G1 X79 Y127.9 E125.16822
G1 X78.668 Y127.86 E125.17934
G1 X78.356 Y127.743 E125.19042
G1 X78.079 Y127.555 E125.20156
G1 X77.856 Y127.307 E125.21265
G1 X77.697 Y127.013 E125.22377
G1 X77.6 Y126.639 E125.23662
G1 X77.6 Y93.5 E126.33883
G0 F6000 X77.2 Y93.5
G1 F1200 X77.24 Y93.123 E126.35144
G1 X77.358 Y92.763 E126.36404
G1 X77.548 Y92.436 E126.37662
G1 X77.803 Y92.155 E126.38924
G1 X78.112 Y91.935 E126.40185
G1 X78.459 Y91.783 E126.41445
G1 X79 Y91.7 E126.43266
G1 X120.215 Y91.7 E127.80347
G1 X120.358 Y91.263 E127.81877
G1 X120.548 Y90.936 E127.83134
G1 X120.803 Y90.655 E127.84397
G1 X121.112 Y90.435 E127.85658
G1 X121.459 Y90.283 E127.86918
G1 X122 Y90.2 E127.88739
G1 X141 Y90.2 E128.51933
G1 X141.377 Y90.24 E128.53194
G1 X141.737 Y90.358 E128.54454
G1 X142.064 Y90.548 E128.55712
G1 X142.345 Y90.803 E128.56974
G1 X142.565 Y91.112 E128.58235
G1 X142.717 Y91.459 E128.59495
G1 X142.8 Y92 E128.61316
G1 X142.8 Y128 E129.81052
G1 X142.76 Y128.377 E129.82313
G1 X142.642 Y128.737 E129.83573
G1 X142.452 Y129.064 E129.84831
G1 X142.197 Y129.345 E129.86093
G1 X141.888 Y129.565 E129.87355
G1 X141.541 Y129.717 E129.88615
G1 X141 Y129.8 E129.90435
G1 X122 Y129.8 E130.5363
G1 X121.623 Y129.76 E130.5489
G1 X121.263 Y129.642 E130.56151
G1 X120.936 Y129.452 E130.57408
G1 X120.655 Y129.197 E130.5867
G1 X120.435 Y128.888 E130.59932
G1 X120.283 Y128.541 E130.61192
G1 X120.246 Y128.3 E130.62003
G1 X79 Y128.3 E131.99188
G1 X78.623 Y128.26 E132.00449
G1 X78.263 Y128.142 E132.01709
G1 X77.936 Y127.952 E132.02967
G1 X77.655 Y127.697 E132.04229
G1 X77.435 Y127.388 E132.0549
G1 X77.283 Y127.041 E132.0675
G1 X77.2 Y126.5 E132.08571
G1 X77.2 Y93.5 E133.18329
G0 F6000 X76.8 Y93.5
G1 F1200 X76.84 Y93.083 E133.19723
G1 X76.958 Y92.681 E133.21116
G1 X77.151 Y92.309 E133.2251
G1 X77.41 Y91.98 E133.23903
G1 X77.727 Y91.706 E133.25296
G1 X78.09 Y91.497 E133.26689
G1 X78.487 Y91.361 E133.28085
G1 X79 Y91.3 E133.29803
G1 X119.923 Y91.3 E134.65914
G1 X119.958 Y91.181 E134.66326
G1 X120.151 Y90.809 E134.6772
G1 X120.41 Y90.48 E134.69113
G1 X120.727 Y90.206 E134.70506
G1 X121.09 Y89.997 E134.719
G1 X121.487 Y89.861 E134.73295
G1 X122 Y89.8 E134.75014
G1 X141 Y89.8 E135.38208
G1 X141.417 Y89.84 E135.39601
G1 X141.819 Y89.958 E135.40995
G1 X142.191 Y90.151 E135.42389
G1 X142.52 Y90.41 E135.43781
G1 X142.794 Y90.727 E135.45175
G1 X143.003 Y91.09 E135.46568
G1 X143.139 Y91.487 E135.47964
G1 X143.2 Y92 E135.49682
G1 X143.2 Y128 E136.69419
G1 X143.16 Y128.417 E136.70812
G1 X143.042 Y128.819 E136.72205
G1 X142.849 Y129.191 E136.73599
G1 X142.59 Y129.52 E136.74992
G1 X142.273 Y129.794 E136.76385
G1 X141.91 Y130.003 E136.77779
G1 X141.513 Y130.139 E136.79174
G1 X141 Y130.2 E136.80893
G1 X122 Y130.2 E137.44087
G1 X121.583 Y130.16 E137.4548
G1 X121.181 Y130.042 E137.46874
G1 X120.809 Y129.849 E137.48268
G1 X120.48 Y129.59 E137.4966
G1 X120.206 Y129.273 E137.51054
G1 X119.997 Y128.91 E137.52447
G1 X119.925 Y128.7 E137.53185
G1 X79 Y128.7 E138.89302
G1 X78.583 Y128.66 E138.90696
G1 X78.181 Y128.542 E138.92089
G1 X77.809 Y128.349 E138.93483
G1 X77.48 Y128.09 E138.94876
G1 X77.206 Y127.773 E138.96269
G1 X76.997 Y127.41 E138.97663
G1 X76.861 Y127.013 E138.99058
G1 X76.8 Y126.5 E139.00777
G1 X76.8 Y93.5 E140.10535
G0 F6000 X76.4 Y93.5
G1 F1200 X76.44 Y93.046 E140.12051
G1 X76.558 Y92.606 E140.13566
G1 X76.752 Y92.194 E140.15081
G1 X77.015 Y91.821 E140.16599
G1 X77.338 Y91.5 E140.18113
G1 X77.713 Y91.241 E140.19629
G1 X78.127 Y91.051 E140.21144
G1 X78.568 Y90.936 E140.2266
G1 X79 Y90.9 E140.24102
G1 X119.655 Y90.9 E141.59321
G1 X119.752 Y90.694 E141.60078
G1 X120.015 Y90.321 E141.61596
G1 X120.338 Y90 E141.63111
G1 X120.713 Y89.741 E141.64627
G1 X121.127 Y89.551 E141.66142
G1 X121.568 Y89.436 E141.67657
G1 X122 Y89.4 E141.69099
G1 X141 Y89.4 E142.32294
G1 X141.454 Y89.44 E142.33809
G1 X141.894 Y89.558 E142.35325
G1 X142.306 Y89.752 E142.36839
G1 X142.679 Y90.015 E142.38357
G1 X143 Y90.338 E142.39872
G1 X143.259 Y90.713 E142.41388
G1 X143.449 Y91.127 E142.42903
G1 X143.564 Y91.568 E142.44418
G1 X143.6 Y92 E142.4586
G1 X143.6 Y128 E143.65597
G1 X143.56 Y128.454 E143.67113
G1 X143.442 Y128.894 E143.68628
G1 X143.248 Y129.306 E143.70142
G1 X142.985 Y129.679 E143.7166
G1 X142.662 Y130 E143.73175
G1 X142.287 Y130.259 E143.74691
G1 X141.873 Y130.449 E143.76206
G1 X141.432 Y130.564 E143.77722
G1 X141 Y130.6 E143.79164
G1 X122 Y130.6 E144.42358
G1 X121.546 Y130.56 E144.43874
G1 X121.106 Y130.442 E144.45389
G1 X120.694 Y130.248 E144.46903
G1 X120.321 Y129.985 E144.48421
G1 X120 Y129.662 E144.49936
G1 X119.741 Y129.287 E144.51452
G1 X119.655 Y129.1 E144.52136
G1 X79 Y129.1 E145.87356
G1 X78.546 Y129.06 E145.88871
