;FLAVOR:Marlin
;TIME:6243
;Filament used: 3.64355m
;Layer height: 0.2
;MINX:73.25
;MINY:77.05
;MINZ:0.2
;MAXX:146.85
;MAXY:134.94
;MAXZ:50
;Generated with Cura_SteamEngine main
M140 S50
M105
M190 S50
M104 S200
M105
M109 S200
M82 ;absolute extrusion mode
M201 X500.00 Y500.00 Z100.00 E5000.00 ;Setup machine max acceleration
M203 X500.00 Y500.00 Z10.00 E50.00 ;Setup machine max feedrate
M204 P500.00 R1000.00 T500.00 ;Setup Print/Retract/Travel acceleration
M205 X8.00 Y8.00 Z0.40 E5.00 ;Setup Jerk
M220 S100 ;Reset Feedrate
M221 S100 ;Reset Flowrate

G28 ;Home
G29 ;Auto Bed Leveling
M420 S1 Z2 ;Enable ABL using saved Mesh and Fade Height

G92 E0 ;Reset Extruder
G1 Z2.0 F3000 ;Move Z Axis up
G1 X10.1 Y20 Z0.28 F5000.0 ;Move to start position
G1 X10.1 Y200.0 Z0.28 F1500.0 E15 ;Draw the first line
G1 X10.4 Y200.0 Z0.28 F5000.0 ;Move to side a little
G1 X10.4 Y20 Z0.28 F1500.0 E30 ;Draw the second line
G92 E0 ;Reset Extruder
G1 Z2.0 F3000 ;Move Z Axis up
G92 E0
G92 E0
G1 F2700 E-5
;LAYER_COUNT:250
;LAYER:0
M107
G0 F6000 X75.673 Y79.199 Z0.2
G0 X73.25 Y84.85
;TYPE:SKIRT
G1 F2700 E0
G1 F1200 X73.29 Y84.061 E0.02628
G1 X73.409 Y83.281 E0.05252
G1 X73.607 Y82.516 E0.0788
G1 X73.881 Y81.776 E0.10505
G1 X74.229 Y81.067 E0.13132
G1 X74.647 Y80.396 E0.15761
G1 X75.13 Y79.772 E0.18385
G1 X75.673 Y79.199 E0.21011
G1 X76.272 Y78.684 E0.23638
G1 X76.92 Y78.233 E0.26264
G1 X77.611 Y77.849 E0.28894
G1 X78.336 Y77.537 E0.31519
G1 X79.089 Y77.3 E0.34144
G1 X79.863 Y77.141 E0.36773
G1 X80.648 Y77.06 E0.39397
G1 X81.05 Y77.05 E0.40735
G1 X86.05 Y77.05 E0.57365
G1 X86.839 Y77.09 E0.59992
G1 X87.619 Y77.209 E0.62617
G1 X88.384 Y77.407 E0.65245
G1 X89.124 Y77.681 E0.6787
G1 X89.833 Y78.029 E0.70496
G1 X90.504 Y78.447 E0.73126
G1 X91.128 Y78.93 E0.7575
G1 X91.701 Y79.473 E0.78376
G1 X92.216 Y80.072 E0.81003
G1 X92.667 Y80.72 E0.83629
G1 X93.051 Y81.411 E0.86259
G1 X93.363 Y82.136 E0.88884
G1 X93.6 Y82.889 E0.91509
G1 X93.695 Y83.35 E0.93075
G1 X126.391 Y83.35 E2.01822
G1 X126.607 Y82.516 E2.04688
G1 X126.881 Y81.776 E2.07312
G1 X127.229 Y81.067 E2.09939
G1 X127.647 Y80.396 E2.12568
G1 X128.13 Y79.772 E2.15193
G1 X128.673 Y79.199 E2.17819
G1 X129.272 Y78.684 E2.20446
G1 X129.92 Y78.233 E2.23072
G1 X130.611 Y77.849 E2.25701
G1 X131.336 Y77.537 E2.28326
G1 X132.089 Y77.3 E2.30952
G1 X132.863 Y77.141 E2.3358
G1 X133.648 Y77.06 E2.36205
G1 X134.05 Y77.05 E2.37542
G1 X139.05 Y77.05 E2.54172
G1 X139.839 Y77.09 E2.568
G1 X140.619 Y77.209 E2.59424
G1 X141.384 Y77.407 E2.62052
G1 X142.124 Y77.681 E2.64677
G1 X142.833 Y78.029 E2.67304
G1 X143.504 Y78.447 E2.69933
G1 X144.128 Y78.93 E2.72558
G1 X144.701 Y79.473 E2.75183
G1 X145.216 Y80.072 E2.77811
G1 X145.667 Y80.72 E2.80437
G1 X146.051 Y81.411 E2.83066
G1 X146.363 Y82.136 E2.85691
G1 X146.6 Y82.889 E2.88317
G1 X146.759 Y83.663 E2.90945
G1 X146.84 Y84.448 E2.9357
G1 X146.85 Y84.85 E2.94907
G1 X146.85 Y95.15 E3.29165
G1 X146.81 Y95.939 E3.31793
G1 X146.691 Y96.719 E3.34417
G1 X146.493 Y97.484 E3.37045
G1 X146.219 Y98.224 E3.3967
G1 X145.871 Y98.933 E3.42297
G1 X145.453 Y99.604 E3.44926
G1 X144.97 Y100.228 E3.47551
G1 X144.427 Y100.801 E3.50176
G1 X143.828 Y101.316 E3.52804
G1 X143.18 Y101.767 E3.55429
G1 X142.489 Y102.151 E3.58059
G1 X141.764 Y102.463 E3.60684
G1 X141.011 Y102.7 E3.6331
G1 X140.237 Y102.859 E3.65938
G1 X139.452 Y102.94 E3.68562
G1 X139.05 Y102.95 E3.699
G1 X119.85 Y102.95 E4.33759
G1 X119.85 Y126.166 E5.10976
G1 X119.81 Y126.955 E5.13604
G1 X119.691 Y127.735 E5.16228
G1 X119.493 Y128.5 E5.18856
G1 X119.219 Y129.24 E5.21481
G1 X118.871 Y129.949 E5.24108
G1 X118.453 Y130.62 E5.26737
G1 X117.97 Y131.244 E5.29362
G1 X117.427 Y131.817 E5.31987
G1 X116.828 Y132.332 E5.34615
G1 X116.18 Y132.783 E5.3724
G1 X115.489 Y133.167 E5.3987
G1 X114.764 Y133.479 E5.42495
G1 X114.011 Y133.716 E5.4512
G1 X113.237 Y133.875 E5.47749
G1 X112.452 Y133.956 E5.50373
G1 X112.052 Y133.966 E5.51704
G1 X108.052 Y133.967 E5.65008
G1 X107.263 Y133.927 E5.67636
G1 X106.483 Y133.808 E5.7026
G1 X105.718 Y133.61 E5.72888
G1 X104.977 Y133.336 E5.75516
G1 X104.268 Y132.989 E5.78141
G1 X103.598 Y132.572 E5.80766
G1 X102.973 Y132.089 E5.83393
G1 X102.4 Y131.545 E5.86021
G1 X101.886 Y130.946 E5.88647
G1 X101.434 Y130.298 E5.91274
G1 X101.05 Y129.608 E5.93901
G1 X100.738 Y128.883 E5.96526
G1 X100.501 Y128.13 E5.99152
G1 X100.341 Y127.356 E6.0178
G1 X100.26 Y126.571 E6.04405
G1 X100.25 Y126.167 E6.05749
G1 X100.25 Y102.95 E6.82969
G1 X81.05 Y102.95 E7.46829
G1 X80.261 Y102.91 E7.49456
G1 X79.481 Y102.791 E7.52081
G1 X78.716 Y102.593 E7.54709
G1 X77.976 Y102.319 E7.57333
G1 X77.267 Y101.971 E7.5996
G1 X76.596 Y101.553 E7.6259
G1 X75.972 Y101.07 E7.65214
G1 X75.399 Y100.527 E7.6784
G1 X74.884 Y99.928 E7.70467
G1 X74.433 Y99.28 E7.73093
G1 X74.049 Y98.589 E7.75722
G1 X73.737 Y97.864 E7.78348
G1 X73.5 Y97.111 E7.80973
G1 X73.341 Y96.337 E7.83601
G1 X73.26 Y95.552 E7.86226
G1 X73.25 Y95.15 E7.87564
G1 X73.25 Y84.85 E8.21821
G0 F6000 X73.65 Y84.85
G1 F1200 X73.69 Y84.082 E8.24379
G1 X73.809 Y83.322 E8.26938
G1 X74.007 Y82.579 E8.29495
G1 X74.281 Y81.86 E8.32054
G1 X74.628 Y81.174 E8.34611
G1 X75.044 Y80.527 E8.3717
G1 X75.525 Y79.927 E8.39727
G1 X76.066 Y79.38 E8.42286
G1 X76.661 Y78.892 E8.44846
G1 X77.303 Y78.469 E8.47403
G1 X77.986 Y78.114 E8.49963
G1 X78.701 Y77.833 E8.52518
G1 X79.443 Y77.627 E8.5508
G1 X80.201 Y77.499 E8.57636
G1 X81.05 Y77.45 E8.60465
G1 X86.05 Y77.45 E8.77095
G1 X86.818 Y77.49 E8.79653
G1 X87.578 Y77.609 E8.82211
G1 X88.321 Y77.807 E8.84769
G1 X89.04 Y78.081 E8.87328
G1 X89.726 Y78.428 E8.89885
G1 X90.373 Y78.844 E8.92443
G1 X90.973 Y79.325 E8.95001
G1 X91.52 Y79.866 E8.9756
G1 X92.008 Y80.461 E9.00119
G1 X92.431 Y81.103 E9.02676
G1 X92.786 Y81.786 E9.05237
G1 X93.067 Y82.501 E9.07792
G1 X93.273 Y83.243 E9.10353
G1 X93.359 Y83.75 E9.12063
G1 X126.742 Y83.75 E10.23096
G1 X126.809 Y83.322 E10.24537
G1 X127.007 Y82.579 E10.27094
G1 X127.281 Y81.86 E10.29653
G1 X127.628 Y81.174 E10.3221
G1 X128.044 Y80.527 E10.34768
G1 X128.525 Y79.927 E10.37326
G1 X129.066 Y79.38 E10.39885
G1 X129.661 Y78.892 E10.42444
G1 X130.303 Y78.469 E10.45002
G1 X130.986 Y78.114 E10.47562
G1 X131.701 Y77.833 E10.50117
G1 X132.443 Y77.627 E10.52678
G1 X133.201 Y77.499 E10.55235
G1 X134.05 Y77.45 E10.58063
G1 X139.05 Y77.45 E10.74694
G1 X139.818 Y77.49 E10.77251
G1 X140.578 Y77.609 E10.7981
G1 X141.321 Y77.807 E10.82367
G1 X142.04 Y78.081 E10.84927
G1 X142.726 Y78.428 E10.87484
G1 X143.373 Y78.844 E10.90042
G1 X143.973 Y79.325 E10.926
G1 X144.52 Y79.866 E10.95158
G1 X145.008 Y80.461 E10.97718
G1 X145.431 Y81.103 E11.00275
G1 X145.786 Y81.786 E11.02835
G1 X146.067 Y82.501 E11.0539
G1 X146.273 Y83.243 E11.07952
G1 X146.401 Y84.001 E11.10508
G1 X146.45 Y84.85 E11.13337
G1 X146.45 Y95.15 E11.47595
G1 X146.41 Y95.918 E11.50153
G1 X146.291 Y96.678 E11.52711
G1 X146.093 Y97.421 E11.55269
G1 X145.819 Y98.14 E11.57828
G1 X145.472 Y98.826 E11.60385
G1 X145.056 Y99.473 E11.62943
G1 X144.575 Y100.073 E11.65501
G1 X144.034 Y100.62 E11.6806
G1 X143.439 Y101.108 E11.70619
G1 X142.797 Y101.531 E11.73176
G1 X142.114 Y101.886 E11.75737
G1 X141.399 Y102.167 E11.78292
G1 X140.657 Y102.373 E11.80853
G1 X139.899 Y102.501 E11.8341
G1 X139.05 Y102.55 E11.86238
G1 X119.45 Y102.55 E12.51428
G1 X119.45 Y126.166 E13.29975
G1 X119.41 Y126.934 E13.32533
G1 X119.291 Y127.694 E13.35092
G1 X119.093 Y128.437 E13.37649
G1 X118.819 Y129.156 E13.40208
G1 X118.472 Y129.842 E13.42765
G1 X118.056 Y130.489 E13.45324
G1 X117.575 Y131.089 E13.47881
G1 X117.034 Y131.636 E13.5044
G1 X116.439 Y132.124 E13.53
G1 X115.797 Y132.547 E13.55557
G1 X115.114 Y132.902 E13.58117
G1 X114.399 Y133.183 E13.60672
G1 X113.657 Y133.389 E13.63233
G1 X112.899 Y133.517 E13.6579
G1 X112.052 Y133.566 E13.68612
G1 X108.052 Y133.567 E13.81916
G1 X107.284 Y133.527 E13.84474
G1 X106.524 Y133.408 E13.87032
G1 X105.781 Y133.21 E13.8959
G1 X105.062 Y132.937 E13.92148
G1 X104.375 Y132.59 E13.94708
G1 X103.728 Y132.174 E13.97266
G1 X103.128 Y131.693 E13.99824
G1 X102.581 Y131.152 E14.02383
G1 X102.093 Y130.557 E14.04942
G1 X101.67 Y129.915 E14.07499
G1 X101.315 Y129.233 E14.10057
G1 X101.033 Y128.517 E14.12616
G1 X100.827 Y127.776 E14.15174
G1 X100.699 Y127.018 E14.17731
G1 X100.65 Y126.167 E14.20566
G1 X100.65 Y102.55 E14.99116
G1 X81.05 Y102.55 E15.64306
G1 X80.282 Y102.51 E15.66864
G1 X79.522 Y102.391 E15.69423
G1 X78.779 Y102.193 E15.7198
G1 X78.06 Y101.919 E15.74539
G1 X77.374 Y101.572 E15.77096
G1 X76.727 Y101.156 E15.79655
G1 X76.127 Y100.675 E15.82212
G1 X75.58 Y100.134 E15.84771
G1 X75.092 Y99.539 E15.87331
G1 X74.669 Y98.897 E15.89888
G1 X74.314 Y98.214 E15.92448
G1 X74.033 Y97.499 E15.95003
G1 X73.827 Y96.757 E15.97564
G1 X73.699 Y95.999 E16.00121
G1 X73.65 Y95.15 E16.0295
G1 X73.65 Y84.85 E16.37208
G0 F6000 X74.05 Y84.85
G1 F1200 X74.09 Y84.103 E16.39696
G1 X74.209 Y83.365 E16.42182
G1 X74.407 Y82.643 E16.44672
G1 X74.68 Y81.947 E16.47159
G1 X75.027 Y81.284 E16.49648
G1 X75.442 Y80.661 E16.52137
G1 X75.921 Y80.087 E16.54624
G1 X76.458 Y79.566 E16.57112
G1 X77.048 Y79.107 E16.59599
G1 X77.684 Y78.712 E16.62089
G1 X78.358 Y78.388 E16.64576
G1 X79.063 Y78.138 E16.67064
G1 X79.791 Y77.964 E16.69554
G1 X80.533 Y77.869 E16.72042
G1 X81.05 Y77.85 E16.73762
G1 X86.05 Y77.85 E16.90392
G1 X86.797 Y77.89 E16.9288
G1 X87.535 Y78.009 E16.95367
G1 X88.257 Y78.207 E16.97857
G1 X88.953 Y78.48 E17.00343
G1 X89.616 Y78.827 E17.02832
G1 X90.239 Y79.242 E17.05322
G1 X90.813 Y79.721 E17.07809
G1 X91.334 Y80.258 E17.10297
G1 X91.793 Y80.848 E17.12783
G1 X92.188 Y81.484 E17.15274
G1 X92.512 Y82.158 E17.17761
G1 X92.762 Y82.863 E17.20249
G1 X92.936 Y83.591 E17.22738
G1 X93.008 Y84.15 E17.24613
G1 X127.087 Y84.15 E18.3796
G1 X127.209 Y83.365 E18.40602
G1 X127.407 Y82.643 E18.43092
G1 X127.68 Y81.947 E18.45579
G1 X128.027 Y81.284 E18.48068
G1 X128.442 Y80.661 E18.50558
G1 X128.921 Y80.087 E18.53044
G1 X129.458 Y79.566 E18.55533
G1 X130.048 Y79.107 E18.58019
G1 X130.684 Y78.712 E18.60509
G1 X131.358 Y78.388 E18.62996
G1 X132.063 Y78.138 E18.65484
G1 X132.791 Y77.964 E18.67974
G1 X133.533 Y77.869 E18.70462
G1 X134.05 Y77.85 E18.72183
G1 X139.05 Y77.85 E18.88813
G1 X139.797 Y77.89 E18.91301
G1 X140.535 Y78.009 E18.93787
G1 X141.257 Y78.207 E18.96277
G1 X141.953 Y78.48 E18.98764
G1 X142.616 Y78.827 E19.01253
G1 X143.239 Y79.242 E19.03742
G1 X143.813 Y79.721 E19.06229
G1 X144.334 Y80.258 E19.08717
G1 X144.793 Y80.848 E19.11204
G1 X145.188 Y81.484 E19.13694
G1 X145.512 Y82.158 E19.16181
G1 X145.762 Y82.863 E19.18669
G1 X145.936 Y83.591 E19.21159
G1 X146.031 Y84.333 E19.23647
G1 X146.05 Y84.85 E19.25367
G1 X146.05 Y95.15 E19.59625
G1 X146.01 Y95.897 E19.62113
G1 X145.891 Y96.635 E19.646
G1 X145.693 Y97.357 E19.6709
G1 X145.42 Y98.053 E19.69576
G1 X145.073 Y98.716 E19.72065
G1 X144.658 Y99.339 E19.74555
G1 X144.179 Y99.913 E19.77042
G1 X143.642 Y100.434 E19.7953
G1 X143.052 Y100.893 E19.82016
G1 X142.416 Y101.288 E19.84506
G1 X141.742 Y101.612 E19.86994
G1 X141.037 Y101.862 E19.89482
G1 X140.309 Y102.036 E19.91971
G1 X139.567 Y102.131 E19.94459
G1 X139.05 Y102.15 E19.9618
G1 X119.05 Y102.15 E20.627
G1 X119.05 Y126.166 E21.42578
G1 X119.01 Y126.913 E21.45066
G1 X118.891 Y127.651 E21.47552
G1 X118.693 Y128.373 E21.50042
G1 X118.42 Y129.069 E21.52529
G1 X118.073 Y129.732 E21.55018
G1 X117.658 Y130.355 E21.57507
G1 X117.179 Y130.929 E21.59994
G1 X116.642 Y131.45 E21.62483
G1 X116.052 Y131.909 E21.64969
G1 X115.416 Y132.304 E21.67459
G1 X114.742 Y132.628 E21.69946
G1 X114.037 Y132.878 E21.72434
G1 X113.309 Y133.052 E21.74924
G1 X112.567 Y133.147 E21.77412
G1 X112.052 Y133.166 E21.79126
G1 X108.052 Y133.167 E21.9243
G1 X107.305 Y133.127 E21.94918
G1 X106.566 Y133.008 E21.97408
G1 X105.845 Y132.811 E21.99893
G1 X105.148 Y132.537 E22.02384
G1 X104.485 Y132.191 E22.04872
G1 X103.863 Y131.776 E22.07359
G1 X103.288 Y131.298 E22.09846
G1 X102.768 Y130.76 E22.12334
G1 X102.308 Y130.17 E22.14823
G1 X101.913 Y129.534 E22.17313
G1 X101.589 Y128.86 E22.198
G1 X101.338 Y128.156 E22.22286
G1 X101.165 Y127.428 E22.24775
G1 X101.069 Y126.686 E22.27263
G1 X101.05 Y126.167 E22.28991
G1 X101.05 Y102.15 E23.08871
G1 X81.05 Y102.15 E23.75392
G1 X80.303 Y102.11 E23.7788
G1 X79.565 Y101.991 E23.80366
G1 X78.843 Y101.793 E23.82856
G1 X78.147 Y101.52 E23.85343
G1 X77.484 Y101.173 E23.87832
G1 X76.861 Y100.758 E23.90321
G1 X76.287 Y100.279 E23.92808
G1 X75.766 Y99.742 E23.95296
G1 X75.307 Y99.152 E23.97783
G1 X74.912 Y98.516 E24.00273
G1 X74.588 Y97.842 E24.0276
G1 X74.338 Y97.137 E24.05248
G1 X74.164 Y96.409 E24.07738
G1 X74.069 Y95.667 E24.10226
G1 X74.05 Y95.15 E24.11946
G1 X74.05 Y84.85 E24.46204
G0 F6000 X74.45 Y84.85
G1 F1200 X74.49 Y84.125 E24.48619
G1 X74.609 Y83.408 E24.51037
G1 X74.807 Y82.709 E24.53453
G1 X75.08 Y82.036 E24.55869
G1 X75.425 Y81.397 E24.58284
G1 X75.839 Y80.8 E24.607
G1 X76.315 Y80.252 E24.63115
G1 X76.849 Y79.759 E24.65532
G1 X77.434 Y79.329 E24.67947
G1 X78.063 Y78.965 E24.70364
G1 X78.728 Y78.672 E24.72781
G1 X79.421 Y78.454 E24.75197
G1 X80.133 Y78.314 E24.7761
G1 X81.05 Y78.25 E24.80668
G1 X86.05 Y78.25 E24.97298
G1 X86.775 Y78.29 E24.99713
G1 X87.492 Y78.409 E25.0213
G1 X88.191 Y78.607 E25.04547
G1 X88.864 Y78.88 E25.06962
G1 X89.503 Y79.225 E25.09377
G1 X90.1 Y79.639 E25.11794
G1 X90.648 Y80.115 E25.14208
G1 X91.141 Y80.649 E25.16625
G1 X91.571 Y81.234 E25.1904
G1 X91.935 Y81.863 E25.21457
G1 X92.228 Y82.528 E25.23874
G1 X92.446 Y83.221 E25.26291
G1 X92.586 Y83.933 E25.28704
G1 X92.629 Y84.55 E25.30761
G1 X127.467 Y84.55 E26.46633
G1 X127.49 Y84.125 E26.48048
G1 X127.609 Y83.408 E26.50466
G1 X127.807 Y82.709 E26.52882
G1 X128.08 Y82.036 E26.55298
G1 X128.425 Y81.397 E26.57713
G1 X128.839 Y80.8 E26.60129
G1 X129.315 Y80.252 E26.62544
G1 X129.849 Y79.759 E26.64961
G1 X130.434 Y79.329 E26.67376
G1 X131.063 Y78.965 E26.69793
G1 X131.728 Y78.672 E26.7221
G1 X132.421 Y78.454 E26.74626
G1 X133.133 Y78.314 E26.77039
G1 X134.05 Y78.25 E26.80097
G1 X139.05 Y78.25 E26.96727
G1 X139.775 Y78.29 E26.99142
G1 X140.492 Y78.409 E27.01559
G1 X141.191 Y78.607 E27.03976
G1 X141.864 Y78.88 E27.06391
G1 X142.503 Y79.225 E27.08807
G1 X143.1 Y79.639 E27.11223
G1 X143.648 Y80.115 E27.13637
G1 X144.141 Y80.649 E27.16054
G1 X144.571 Y81.234 E27.18469
G1 X144.935 Y81.863 E27.20886
G1 X145.228 Y82.528 E27.23303
G1 X145.446 Y83.221 E27.2572
G1 X145.586 Y83.933 E27.28133
G1 X145.65 Y84.85 E27.3119
G1 X145.65 Y95.15 E27.65448
G1 X145.61 Y95.875 E27.67863
G1 X145.491 Y96.592 E27.70281
G1 X145.293 Y97.291 E27.72697
G1 X145.02 Y97.964 E27.75113
G1 X144.675 Y98.603 E27.77528
G1 X144.261 Y99.2 E27.79944
G1 X143.785 Y99.748 E27.82359
G1 X143.251 Y100.241 E27.84776
G1 X142.666 Y100.671 E27.87191
G1 X142.037 Y101.035 E27.89608
G1 X141.372 Y101.328 E27.92025
G1 X140.679 Y101.546 E27.94441
G1 X139.967 Y101.686 E27.96854
G1 X139.05 Y101.75 E27.99912
G1 X118.784 Y101.75 E28.67317
G1 X118.65 Y101.884 E28.67947
G1 X118.65 Y126.166 E29.48709
G1 X118.61 Y126.891 E29.51124
G1 X118.491 Y127.608 E29.53542
G1 X118.293 Y128.307 E29.55958
G1 X118.02 Y128.98 E29.58374
G1 X117.675 Y129.619 E29.60789
G1 X117.261 Y130.216 E29.63205
G1 X116.785 Y130.764 E29.6562
G1 X116.251 Y131.257 E29.68037
G1 X115.666 Y131.687 E29.70452
G1 X115.037 Y132.051 E29.72869
G1 X114.372 Y132.344 E29.75286
G1 X113.679 Y132.562 E29.77702
G1 X112.967 Y132.702 E29.80115
G1 X112.052 Y132.766 E29.83166
G1 X108.052 Y132.767 E29.9647
G1 X107.326 Y132.727 E29.98889
G1 X106.61 Y132.608 E30.01303
G1 X105.911 Y132.411 E30.03718
G1 X105.238 Y132.138 E30.06134
G1 X104.599 Y131.793 E30.08549
G1 X104.001 Y131.379 E30.10968
G1 X103.453 Y130.903 E30.13382
G1 X102.96 Y130.369 E30.158
G1 X102.53 Y129.784 E30.18214
G1 X102.165 Y129.156 E30.2063
G1 X101.873 Y128.491 E30.23046
G1 X101.655 Y127.798 E30.25462
G1 X101.514 Y127.085 E30.2788
G1 X101.45 Y126.167 E30.3094
G1 X101.45 Y101.884 E31.11706
G1 X101.316 Y101.75 E31.12336
G1 X81.05 Y101.75 E31.79741
G1 X80.325 Y101.71 E31.82156
G1 X79.608 Y101.591 E31.84574
G1 X78.909 Y101.393 E31.8699
G1 X78.236 Y101.12 E31.89406
G1 X77.597 Y100.775 E31.91821
G1 X77 Y100.361 E31.94237
G1 X76.452 Y99.885 E31.96651
G1 X75.959 Y99.351 E31.99069
G1 X75.529 Y98.766 E32.01483
