;FLAVOR:Marlin
;TIME:474
;Filament used: 0.266481m
;Layer height: 0.2
;MINX:93.808
;MINY:93.808
;MINZ:0.2
;MAXX:126.192
;MAXY:126.192
;MAXZ:4
;Generated with Cura_SteamEngine main
M140 S50
M105
M190 S50
M104 S200
M105
M109 S200
M82 ;absolute extrusion mode
M201 X500.00 Y500.00 Z100.00 E5000.00 ;Setup machine max acceleration
M203 X500.00 Y500.00 Z10.00 E50.00 ;Setup machine max feedrate
M204 P500.00 R1000.00 T500.00 ;Setup Print/Retract/Travel acceleration
M205 X8.00 Y8.00 Z0.40 E5.00 ;Setup Jerk
M220 S100 ;Reset Feedrate
M221 S100 ;Reset Flowrate

G28 ;Home
G29 ;Auto Bed Leveling
M420 S1 Z2 ;Enable ABL using saved Mesh and Fade Height

G92 E0 ;Reset Extruder
G1 Z2.0 F3000 ;Move Z Axis up
G1 X10.1 Y20 Z0.28 F5000.0 ;Move to start position
G1 X10.1 Y200.0 Z0.28 F1500.0 E15 ;Draw the first line
G1 X10.4 Y200.0 Z0.28 F5000.0 ;Move to side a little
G1 X10.4 Y20 Z0.28 F1500.0 E30 ;Draw the second line
G92 E0 ;Reset Extruder
G1 Z2.0 F3000 ;Move Z Axis up
G92 E0
G92 E0
G1 F2700 E-5
;LAYER_COUNT:20
;LAYER:0
M107
G0 F6000 X97.637 Y99.742 Z0.2
G0 X93.808 Y109.627
;TYPE:SKIRT
G1 F2700 E0
G1 F1200 X93.848 Y108.838 E0.02628
G1 X93.967 Y108.058 E0.05252
G1 X94.165 Y107.293 E0.0788
G1 X94.439 Y106.553 E0.10505
G1 X94.759 Y105.901 E0.1292
G1 X94.777 Y105.429 E0.14491
G1 X94.888 Y104.647 E0.17118
G1 X95.077 Y103.88 E0.19746
G1 X95.342 Y103.136 E0.22373
G1 X95.789 Y102.23 E0.25733
G1 X96.161 Y101.585 E0.28209
G1 X96.59 Y100.922 E0.30836
G1 X97.083 Y100.305 E0.33463
G1 X97.637 Y99.742 E0.3609
G1 X98.244 Y99.237 E0.38716
G1 X98.849 Y98.831 E0.41139
G1 X99.11 Y98.419 E0.42761
G1 X99.598 Y97.798 E0.45388
G1 X100.146 Y97.229 E0.48016
G1 X100.748 Y96.719 E0.5064
G1 X101.585 Y96.161 E0.53986
G1 X102.23 Y95.789 E0.56462
G1 X102.933 Y95.43 E0.59088
G1 X103.669 Y95.143 E0.61715
G1 X104.43 Y94.933 E0.64341
G1 X105.209 Y94.8 E0.66969
G1 X105.929 Y94.752 E0.69369
G1 X106.364 Y94.524 E0.71003
G1 X107.097 Y94.23 E0.7363
G1 X107.856 Y94.012 E0.76256
G1 X108.633 Y93.872 E0.78882
G1 X109.628 Y93.808 E0.82198
G1 X110.373 Y93.808 E0.84676
G1 X111.162 Y93.848 E0.87304
G1 X111.942 Y93.967 E0.89928
G1 X112.707 Y94.165 E0.92556
G1 X113.447 Y94.439 E0.95181
G1 X114.099 Y94.759 E0.97597
G1 X114.571 Y94.777 E0.99168
G1 X115.353 Y94.888 E1.01795
G1 X116.12 Y95.077 E1.04422
G1 X116.864 Y95.342 E1.07049
G1 X117.77 Y95.789 E1.10409
G1 X118.415 Y96.161 E1.12885
G1 X119.078 Y96.59 E1.15512
G1 X119.695 Y97.083 E1.18139
G1 X120.258 Y97.637 E1.20766
G1 X120.763 Y98.244 E1.23392
G1 X121.169 Y98.849 E1.25815
G1 X121.581 Y99.11 E1.27438
G1 X122.203 Y99.598 E1.30067
G1 X122.771 Y100.146 E1.32692
G1 X123.282 Y100.749 E1.35321
G1 X123.839 Y101.585 E1.38662
G1 X124.211 Y102.23 E1.41139
G1 X124.57 Y102.933 E1.43764
G1 X124.857 Y103.669 E1.46392
G1 X125.067 Y104.43 E1.49017
G1 X125.2 Y105.209 E1.51646
G1 X125.248 Y105.929 E1.54046
G1 X125.476 Y106.364 E1.55679
G1 X125.77 Y107.097 E1.58306
G1 X125.988 Y107.856 E1.60933
G1 X126.128 Y108.633 E1.63559
G1 X126.192 Y109.628 E1.66875
G1 X126.192 Y110.373 E1.69353
G1 X126.152 Y111.162 E1.7198
G1 X126.033 Y111.942 E1.74605
G1 X125.835 Y112.707 E1.77233
G1 X125.561 Y113.447 E1.79857
G1 X125.241 Y114.099 E1.82273
G1 X125.223 Y114.571 E1.83844
G1 X125.112 Y115.353 E1.86471
G1 X124.923 Y116.12 E1.89098
G1 X124.658 Y116.864 E1.91725
G1 X124.211 Y117.77 E1.95085
G1 X123.839 Y118.415 E1.97562
G1 X123.41 Y119.078 E2.00188
G1 X122.917 Y119.695 E2.02815
G1 X122.363 Y120.258 E2.05442
G1 X121.756 Y120.763 E2.08069
G1 X121.151 Y121.169 E2.10492
G1 X120.89 Y121.581 E2.12114
G1 X120.402 Y122.202 E2.14741
G1 X119.854 Y122.771 E2.17368
G1 X119.252 Y123.281 E2.19993
G1 X118.415 Y123.839 E2.23338
G1 X117.77 Y124.211 E2.25815
G1 X117.067 Y124.57 E2.2844
G1 X116.331 Y124.857 E2.31068
G1 X115.57 Y125.067 E2.33693
G1 X114.791 Y125.2 E2.36322
G1 X114.071 Y125.248 E2.38722
G1 X113.636 Y125.476 E2.40355
G1 X112.903 Y125.77 E2.42982
G1 X112.144 Y125.988 E2.45609
G1 X111.367 Y126.128 E2.48235
G1 X110.372 Y126.192 E2.51551
G1 X109.627 Y126.192 E2.54029
G1 X108.838 Y126.152 E2.56656
G1 X108.058 Y126.033 E2.59281
G1 X107.293 Y125.835 E2.61909
G1 X106.553 Y125.561 E2.64533
G1 X105.901 Y125.241 E2.66949
G1 X105.429 Y125.223 E2.6852
G1 X104.647 Y125.112 E2.71147
G1 X103.88 Y124.923 E2.73775
G1 X103.136 Y124.658 E2.76401
G1 X102.23 Y124.211 E2.79762
G1 X101.585 Y123.839 E2.82238
G1 X100.922 Y123.41 E2.84865
G1 X100.305 Y122.917 E2.87491
G1 X99.742 Y122.363 E2.90118
G1 X99.237 Y121.756 E2.92745
G1 X98.831 Y121.151 E2.95168
G1 X98.419 Y120.89 E2.9679
G1 X97.797 Y120.402 E2.9942
G1 X97.229 Y119.854 E3.02045
G1 X96.718 Y119.251 E3.04674
G1 X96.161 Y118.415 E3.08015
G1 X95.789 Y117.77 E3.10491
G1 X95.43 Y117.067 E3.13117
G1 X95.143 Y116.331 E3.15744
G1 X94.933 Y115.57 E3.1837
G1 X94.8 Y114.791 E3.20998
G1 X94.752 Y114.072 E3.23395
G1 X94.523 Y113.635 E3.25036
G1 X94.23 Y112.901 E3.27665
G1 X94.012 Y112.142 E3.30291
G1 X93.872 Y111.365 E3.32917
G1 X93.808 Y110.372 E3.36227
G1 X93.808 Y109.627 E3.38705
G0 F6000 X94.208 Y109.627
G1 F1200 X94.248 Y108.859 E3.41262
G1 X94.367 Y108.099 E3.43821
G1 X94.565 Y107.356 E3.46378
G1 X94.839 Y106.637 E3.48938
G1 X95.151 Y106.02 E3.51237
G1 X95.187 Y105.345 E3.53485
G1 X95.308 Y104.585 E3.56045
G1 X95.507 Y103.842 E3.58603
G1 X95.783 Y103.124 E3.61162
G1 X96.136 Y102.43 E3.63752
G1 X96.508 Y101.785 E3.66228
G1 X96.926 Y101.14 E3.68784
G1 X97.409 Y100.541 E3.71344
G1 X97.952 Y99.996 E3.73902
G1 X98.548 Y99.51 E3.7646
G1 X99.129 Y99.13 E3.78769
G1 X99.507 Y98.552 E3.81066
G1 X99.993 Y97.956 E3.83624
G1 X100.537 Y97.413 E3.86181
G1 X101.135 Y96.929 E3.88739
G1 X101.785 Y96.508 E3.91315
G1 X102.43 Y96.136 E3.93792
G1 X103.115 Y95.787 E3.96349
G1 X103.833 Y95.51 E3.98908
G1 X104.576 Y95.31 E4.01468
G1 X105.335 Y95.188 E4.04024
G1 X106.022 Y95.15 E4.06313
G1 X106.64 Y94.838 E4.08615
G1 X107.359 Y94.564 E4.11175
G1 X108.103 Y94.367 E4.13734
G1 X108.862 Y94.248 E4.1629
G1 X109.628 Y94.208 E4.18841
G1 X110.373 Y94.208 E4.21319
G1 X111.141 Y94.248 E4.23877
G1 X111.901 Y94.367 E4.26435
G1 X112.644 Y94.565 E4.28993
G1 X113.363 Y94.839 E4.31552
G1 X113.98 Y95.151 E4.33851
G1 X114.655 Y95.187 E4.361
G1 X115.415 Y95.308 E4.38659
G1 X116.158 Y95.507 E4.41218
G1 X116.876 Y95.783 E4.43776
G1 X117.57 Y96.136 E4.46366
G1 X118.215 Y96.508 E4.48842
G1 X118.86 Y96.926 E4.51399
G1 X119.459 Y97.409 E4.53958
G1 X120.004 Y97.952 E4.56517
G1 X120.49 Y98.548 E4.59075
G1 X120.87 Y99.129 E4.61384
G1 X121.448 Y99.507 E4.63681
G1 X122.045 Y99.993 E4.66241
G1 X122.588 Y100.537 E4.68797
G1 X123.071 Y101.136 E4.71357
G1 X123.492 Y101.785 E4.7393
G1 X123.864 Y102.43 E4.76406
G1 X124.213 Y103.115 E4.78963
G1 X124.49 Y103.833 E4.81523
G1 X124.69 Y104.576 E4.84082
G1 X124.812 Y105.335 E4.86639
G1 X124.85 Y106.022 E4.88927
G1 X125.162 Y106.64 E4.9123
G1 X125.436 Y107.359 E4.93789
G1 X125.633 Y108.103 E4.96349
G1 X125.752 Y108.862 E4.98904
G1 X125.792 Y109.628 E5.01455
G1 X125.792 Y110.373 E5.03933
G1 X125.752 Y111.141 E5.06491
G1 X125.633 Y111.901 E5.0905
G1 X125.435 Y112.644 E5.11607
G1 X125.161 Y113.363 E5.14166
G1 X124.849 Y113.98 E5.16466
G1 X124.813 Y114.655 E5.18714
G1 X124.692 Y115.415 E5.21274
G1 X124.493 Y116.158 E5.23832
G1 X124.217 Y116.876 E5.26391
G1 X123.864 Y117.57 E5.2898
G1 X123.492 Y118.215 E5.31457
G1 X123.074 Y118.86 E5.34013
G1 X122.591 Y119.459 E5.36572
G1 X122.048 Y120.004 E5.39131
G1 X121.452 Y120.49 E5.41689
G1 X120.871 Y120.87 E5.43998
G1 X120.493 Y121.448 E5.46295
G1 X120.007 Y122.044 E5.48853
G1 X119.463 Y122.587 E5.51409
G1 X118.865 Y123.071 E5.53968
G1 X118.215 Y123.492 E5.56544
G1 X117.57 Y123.864 E5.5902
G1 X116.885 Y124.213 E5.61577
G1 X116.167 Y124.49 E5.64137
G1 X115.424 Y124.69 E5.66696
G1 X114.665 Y124.812 E5.69253
G1 X113.978 Y124.85 E5.71542
G1 X113.36 Y125.162 E5.73844
G1 X112.641 Y125.436 E5.76403
G1 X111.897 Y125.633 E5.78963
G1 X111.138 Y125.752 E5.81518
G1 X110.372 Y125.792 E5.8407
G1 X109.627 Y125.792 E5.86547
G1 X108.859 Y125.752 E5.89105
G1 X108.099 Y125.633 E5.91664
G1 X107.356 Y125.435 E5.94221
G1 X106.637 Y125.161 E5.9678
G1 X106.02 Y124.849 E5.9908
G1 X105.345 Y124.813 E6.01328
G1 X104.585 Y124.692 E6.03888
G1 X103.842 Y124.493 E6.06446
G1 X103.124 Y124.217 E6.09005
G1 X102.43 Y123.864 E6.11594
G1 X101.785 Y123.492 E6.14071
G1 X101.14 Y123.074 E6.16627
G1 X100.541 Y122.591 E6.19187
G1 X99.996 Y122.048 E6.21745
G1 X99.51 Y121.452 E6.24303
G1 X99.13 Y120.871 E6.26612
G1 X98.552 Y120.493 E6.28909
G1 X97.955 Y120.007 E6.3147
G1 X97.412 Y119.463 E6.34026
G1 X96.929 Y118.864 E6.36585
G1 X96.508 Y118.215 E6.39158
G1 X96.136 Y117.57 E6.41635
G1 X95.787 Y116.885 E6.44192
G1 X95.51 Y116.167 E6.46751
G1 X95.31 Y115.424 E6.49311
G1 X95.188 Y114.665 E6.51868
G1 X95.15 Y113.979 E6.54153
G1 X94.837 Y113.358 E6.56466
G1 X94.564 Y112.639 E6.59024
G1 X94.367 Y111.895 E6.61583
G1 X94.248 Y111.136 E6.64139
G1 X94.208 Y110.372 E6.66683
G1 X94.208 Y109.627 E6.69161
G0 F6000 X94.608 Y109.627
G1 F1200 X94.648 Y108.88 E6.71649
G1 X94.767 Y108.142 E6.74136
G1 X94.965 Y107.42 E6.76626
G1 X95.238 Y106.724 E6.79112
G1 X95.551 Y106.125 E6.8136
G1 X95.547 Y106.011 E6.8174
G1 X95.599 Y105.265 E6.84227
G1 X95.731 Y104.529 E6.86714
G1 X95.94 Y103.81 E6.89204
G1 X96.225 Y103.119 E6.9169
G1 X96.482 Y102.63 E6.93528
G1 X96.854 Y101.985 E6.96004
G1 X97.262 Y101.358 E6.98492
G1 X97.734 Y100.778 E7.00979
G1 X98.266 Y100.251 E7.0347
G1 X98.851 Y99.785 E7.05958
G1 X99.426 Y99.419 E7.08225
G1 X99.484 Y99.309 E7.08638
G1 X99.904 Y98.689 E7.11129
G1 X100.387 Y98.118 E7.13616
G1 X100.928 Y97.602 E7.16103
G1 X101.521 Y97.146 E7.18591
G1 X101.985 Y96.854 E7.20414
G1 X102.63 Y96.482 E7.22891
G1 X103.297 Y96.144 E7.25378
G1 X103.996 Y95.878 E7.27865
G1 X104.72 Y95.689 E7.30354
G1 X105.46 Y95.578 E7.32843
G1 X106.134 Y95.549 E7.35087
G1 X106.242 Y95.482 E7.3551
G1 X106.915 Y95.155 E7.37998
G1 X107.619 Y94.903 E7.40485
G1 X108.346 Y94.726 E7.42974
G1 X109.088 Y94.629 E7.45463
G1 X109.628 Y94.608 E7.4726
G1 X110.373 Y94.608 E7.49738
G1 X111.12 Y94.648 E7.52226
G1 X111.858 Y94.767 E7.54712
G1 X112.58 Y94.965 E7.57202
G1 X113.276 Y95.238 E7.59689
G1 X113.875 Y95.551 E7.61937
G1 X113.989 Y95.547 E7.62316
G1 X114.735 Y95.599 E7.64804
G1 X115.471 Y95.731 E7.67291
G1 X116.19 Y95.94 E7.69781
G1 X116.881 Y96.225 E7.72267
G1 X117.37 Y96.482 E7.74104
G1 X118.015 Y96.854 E7.76581
G1 X118.642 Y97.262 E7.79069
G1 X119.222 Y97.734 E7.81556
G1 X119.749 Y98.266 E7.84047
G1 X120.215 Y98.851 E7.86534
G1 X120.581 Y99.426 E7.88801
G1 X120.691 Y99.484 E7.89215
G1 X121.311 Y99.904 E7.91706
G1 X121.882 Y100.387 E7.94193
G1 X122.398 Y100.928 E7.9668
G1 X122.854 Y101.521 E7.99168
G1 X123.146 Y101.985 E8.00991
G1 X123.518 Y102.63 E8.03468
G1 X123.856 Y103.297 E8.05955
G1 X124.122 Y103.996 E8.08442
G1 X124.311 Y104.72 E8.10931
G1 X124.422 Y105.46 E8.1342
G1 X124.451 Y106.134 E8.15664
G1 X124.518 Y106.242 E8.16086
G1 X124.845 Y106.915 E8.18575
G1 X125.097 Y107.619 E8.21062
G1 X125.274 Y108.346 E8.23551
G1 X125.371 Y109.088 E8.2604
G1 X125.392 Y109.628 E8.27837
G1 X125.392 Y110.373 E8.30315
G1 X125.352 Y111.12 E8.32803
G1 X125.233 Y111.858 E8.35289
G1 X125.035 Y112.58 E8.37779
G1 X124.762 Y113.276 E8.40266
G1 X124.449 Y113.875 E8.42514
G1 X124.453 Y113.989 E8.42893
G1 X124.401 Y114.735 E8.4538
G1 X124.269 Y115.471 E8.47867
G1 X124.06 Y116.19 E8.50358
G1 X123.775 Y116.881 E8.52844
G1 X123.518 Y117.37 E8.54681
G1 X123.146 Y118.015 E8.57158
G1 X122.738 Y118.642 E8.59646
G1 X122.266 Y119.222 E8.62133
G1 X121.734 Y119.749 E8.64624
G1 X121.149 Y120.215 E8.67111
G1 X120.574 Y120.581 E8.69378
G1 X120.516 Y120.691 E8.69792
G1 X120.096 Y121.311 E8.72282
G1 X119.613 Y121.882 E8.7477
G1 X119.072 Y122.398 E8.77257
G1 X118.479 Y122.854 E8.79745
G1 X118.015 Y123.146 E8.81568
G1 X117.37 Y123.518 E8.84045
G1 X116.703 Y123.856 E8.86532
G1 X116.004 Y124.122 E8.89019
G1 X115.28 Y124.311 E8.91508
G1 X114.54 Y124.422 E8.93997
G1 X113.866 Y124.451 E8.9624
G1 X113.758 Y124.518 E8.96663
G1 X113.085 Y124.845 E8.99152
G1 X112.381 Y125.097 E9.01639
G1 X111.654 Y125.274 E9.04127
G1 X110.912 Y125.371 E9.06616
G1 X110.372 Y125.392 E9.08414
G1 X109.627 Y125.392 E9.10892
G1 X108.88 Y125.352 E9.1338
G1 X108.142 Y125.233 E9.15866
G1 X107.42 Y125.035 E9.18356
G1 X106.724 Y124.762 E9.20843
G1 X106.125 Y124.449 E9.23091
G1 X106.011 Y124.453 E9.2347
G1 X105.265 Y124.401 E9.25957
G1 X104.529 Y124.269 E9.28444
G1 X103.81 Y124.06 E9.30935
G1 X103.119 Y123.775 E9.33421
G1 X102.63 Y123.518 E9.35258
G1 X101.985 Y123.146 E9.37735
G1 X101.358 Y122.738 E9.40223
G1 X100.778 Y122.266 E9.4271
G1 X100.251 Y121.734 E9.452
G1 X99.785 Y121.149 E9.47688
G1 X99.419 Y120.574 E9.49955
G1 X99.309 Y120.516 E9.50369
G1 X98.689 Y120.096 E9.52859
G1 X98.118 Y119.613 E9.55347
G1 X97.602 Y119.072 E9.57833
G1 X97.146 Y118.479 E9.60321
G1 X96.854 Y118.015 E9.62145
G1 X96.482 Y117.37 E9.64621
G1 X96.144 Y116.703 E9.67108
G1 X95.878 Y116.004 E9.69596
G1 X95.689 Y115.28 E9.72085
G1 X95.578 Y114.54 E9.74573
G1 X95.549 Y113.866 E9.76817
G1 X95.481 Y113.757 E9.77245
G1 X95.154 Y113.083 E9.79736
G1 X94.902 Y112.379 E9.82223
G1 X94.726 Y111.652 E9.84711
G1 X94.629 Y110.91 E9.872
G1 X94.608 Y110.372 E9.88991
G1 X94.608 Y109.627 E9.91469
G0 F6000 X95.008 Y109.627
G1 F1200 X95.048 Y108.902 E9.93884
G1 X95.167 Y108.185 E9.96301
G1 X95.365 Y107.486 E9.98717
G1 X95.638 Y106.813 E10.01133
G1 X95.956 Y106.223 E10.03362
G1 X95.949 Y105.912 E10.04397
G1 X96.013 Y105.189 E10.06811
G1 X96.156 Y104.477 E10.09226
G1 X96.376 Y103.784 E10.11645
G1 X96.829 Y102.83 E10.15157
G1 X97.201 Y102.185 E10.17634
G1 X97.598 Y101.576 E10.20052
G1 X98.059 Y101.015 E10.22467
G1 X98.579 Y100.508 E10.24882
G1 X99.152 Y100.062 E10.27297
G1 X99.726 Y99.709 E10.29539
G1 X99.882 Y99.425 E10.30616
G1 X100.3 Y98.831 E10.33032
G1 X100.78 Y98.286 E10.35448
G1 X101.318 Y97.798 E10.37863
G1 X102.185 Y97.201 E10.41365
G1 X102.83 Y96.829 E10.43841
G1 X103.478 Y96.501 E10.46257
G1 X104.158 Y96.247 E10.48671
G1 X104.862 Y96.068 E10.51087
G1 X105.582 Y95.969 E10.53504
G1 X106.249 Y95.95 E10.55724
G1 X106.528 Y95.781 E10.56809
G1 X107.187 Y95.476 E10.59224
G1 X107.876 Y95.245 E10.61641
G1 X108.585 Y95.091 E10.64054
G1 X109.628 Y95.008 E10.67534
G1 X110.373 Y95.008 E10.70012
G1 X111.098 Y95.048 E10.72427
G1 X111.815 Y95.167 E10.74844
G1 X112.514 Y95.365 E10.77261
G1 X113.187 Y95.638 E10.79676
G1 X113.777 Y95.956 E10.81905
G1 X114.088 Y95.949 E10.8294
G1 X114.811 Y96.013 E10.85354
G1 X115.523 Y96.156 E10.87769
G1 X116.216 Y96.376 E10.90188
G1 X117.17 Y96.829 E10.937
G1 X117.815 Y97.201 E10.96177
G1 X118.424 Y97.598 E10.98595
G1 X118.985 Y98.059 E11.0101
G1 X119.492 Y98.579 E11.03425
G1 X119.938 Y99.152 E11.0584
G1 X120.291 Y99.726 E11.08082
G1 X120.575 Y99.882 E11.09159
G1 X121.169 Y100.3 E11.11575
G1 X121.714 Y100.78 E11.13991
G1 X122.202 Y101.318 E11.16407
G1 X122.799 Y102.185 E11.19908
G1 X123.171 Y102.83 E11.22384
G1 X123.499 Y103.478 E11.248
G1 X123.753 Y104.158 E11.27214
G1 X123.932 Y104.862 E11.2963
G1 X124.031 Y105.582 E11.32047
G1 X124.05 Y106.249 E11.34267
G1 X124.219 Y106.528 E11.35352
G1 X124.524 Y107.187 E11.37767
G1 X124.755 Y107.876 E11.40184
G1 X124.909 Y108.585 E11.42597
G1 X124.992 Y109.628 E11.46077
G1 X124.992 Y110.373 E11.48555
G1 X124.952 Y111.098 E11.5097
G1 X124.833 Y111.815 E11.53387
G1 X124.635 Y112.514 E11.55804
G1 X124.362 Y113.187 E11.58219
G1 X124.044 Y113.777 E11.60448
G1 X124.051 Y114.088 E11.61483
G1 X123.987 Y114.811 E11.63897
G1 X123.844 Y115.523 E11.66313
G1 X123.624 Y116.216 E11.68731
G1 X123.171 Y117.17 E11.72244
G1 X122.799 Y117.815 E11.7472
G1 X122.402 Y118.424 E11.77138
G1 X121.941 Y118.985 E11.79553
G1 X121.421 Y119.492 E11.81969
G1 X120.848 Y119.938 E11.84384
G1 X120.274 Y120.291 E11.86625
G1 X120.118 Y120.575 E11.87703
G1 X119.7 Y121.169 E11.90118
G1 X119.22 Y121.714 E11.92534
G1 X118.682 Y122.202 E11.9495
G1 X117.815 Y122.799 E11.98451
G1 X117.17 Y123.171 E12.00927
G1 X116.522 Y123.499 E12.03343
G1 X115.842 Y123.753 E12.05757
G1 X115.138 Y123.932 E12.08173
G1 X114.418 Y124.031 E12.10591
G1 X113.751 Y124.05 E12.1281
G1 X113.472 Y124.219 E12.13895
G1 X112.813 Y124.524 E12.1631
G1 X112.124 Y124.755 E12.18727
G1 X111.415 Y124.909 E12.2114
G1 X110.372 Y124.992 E12.2462
