;FLAVOR:Marlin
;TIME:3801
;Filament used: 2.27647m
;Layer height: 0.2
;MINX:81.45
;MINY:77.08
;MINZ:0.2
;MAXX:138.55
;MAXY:142.92
;MAXZ:28
;Generated with Cura_SteamEngine main
M140 S50
M105
M190 S50
M104 S200
M105
M109 S200
M82 ;absolute extrusion mode
M201 X500.00 Y500.00 Z100.00 E5000.00 ;Setup machine max acceleration
M203 X500.00 Y500.00 Z10.00 E50.00 ;Setup machine max feedrate
M204 P500.00 R1000.00 T500.00 ;Setup Print/Retract/Travel acceleration
M205 X8.00 Y8.00 Z0.40 E5.00 ;Setup Jerk
M220 S100 ;Reset Feedrate
M221 S100 ;Reset Flowrate

G28 ;Home
G29 ;Auto Bed Leveling
M420 S1 Z2 ;Enable ABL using saved Mesh and Fade Height

G92 E0 ;Reset Extruder
G1 Z2.0 F3000 ;Move Z Axis up
G1 X10.1 Y20 Z0.28 F5000.0 ;Move to start position
G1 X10.1 Y200.0 Z0.28 F1500.0 E15 ;Draw the first line
G1 X10.4 Y200.0 Z0.28 F5000.0 ;Move to side a little
G1 X10.4 Y20 Z0.28 F1500.0 E30 ;Draw the second line
G92 E0 ;Reset Extruder
G1 Z2.0 F3000 ;Move Z Axis up
G92 E0
G92 E0
G1 F2700 E-5
;LAYER_COUNT:140
;LAYER:0
M107
G0 F6000 X84.117 Y101.423 Z0.2
G0 X81.45 Y107.296
;TYPE:SKIRT
G1 F2700 E0
G1 F1200 X81.49 Y106.507 E0.02628
G1 X81.609 Y105.727 E0.05252
G1 X81.807 Y104.962 E0.0788
G1 X82.081 Y104.222 E0.10505
G1 X82.429 Y103.513 E0.13132
G1 X82.847 Y102.842 E0.15761
G1 X83.33 Y102.218 E0.18385
G1 X84.117 Y101.423 E0.22106
G1 X109.768 Y79.007 E1.35408
G1 X110.389 Y78.518 E1.38037
G1 X111.055 Y78.094 E1.40663
G1 X111.761 Y77.74 E1.4329
G1 X112.499 Y77.459 E1.45916
G1 X113.261 Y77.254 E1.48541
G1 X114.041 Y77.128 E1.51169
G1 X114.903 Y77.08 E1.5404
G1 X118.452 Y77.081 E1.65844
G1 X118.783 Y77.098 E1.66947
G1 X119.25 Y77.081 E1.68501
G1 X130.25 Y77.081 E2.05087
G1 X131.039 Y77.121 E2.07715
G1 X131.819 Y77.24 E2.10339
G1 X132.584 Y77.438 E2.12967
G1 X133.324 Y77.712 E2.15592
G1 X134.033 Y78.06 E2.18219
G1 X134.704 Y78.478 E2.20848
G1 X135.328 Y78.961 E2.23473
G1 X135.901 Y79.504 E2.26098
G1 X136.416 Y80.103 E2.28726
G1 X136.867 Y80.751 E2.31351
G1 X137.251 Y81.442 E2.33981
G1 X137.563 Y82.167 E2.36606
G1 X137.8 Y82.92 E2.39231
G1 X137.959 Y83.694 E2.4186
G1 X138.04 Y84.479 E2.44484
G1 X138.05 Y84.881 E2.45822
G1 X138.05 Y87.136 E2.53322
G1 X138.263 Y87.774 E2.55559
G1 X138.436 Y88.544 E2.58184
G1 X138.531 Y89.328 E2.60811
G1 X138.55 Y89.87 E2.62614
G1 X138.55 Y135.12 E4.13117
G1 X138.51 Y135.909 E4.15744
G1 X138.391 Y136.689 E4.18368
G1 X138.193 Y137.454 E4.20997
G1 X137.919 Y138.194 E4.23621
G1 X137.571 Y138.903 E4.26248
G1 X137.153 Y139.574 E4.28878
G1 X136.67 Y140.198 E4.31502
G1 X136.127 Y140.771 E4.34128
G1 X135.528 Y141.286 E4.36755
G1 X134.88 Y141.737 E4.39381
G1 X134.189 Y142.121 E4.4201
G1 X133.464 Y142.433 E4.44635
G1 X132.711 Y142.67 E4.47261
G1 X131.937 Y142.829 E4.49889
G1 X131.152 Y142.91 E4.52514
G1 X130.75 Y142.92 E4.53851
G1 X123.95 Y142.92 E4.76468
G1 X123.161 Y142.88 E4.79096
G1 X122.381 Y142.761 E4.8172
G1 X121.616 Y142.563 E4.84348
G1 X120.876 Y142.289 E4.86973
G1 X120.167 Y141.941 E4.896
G1 X119.496 Y141.523 E4.92229
G1 X118.872 Y141.04 E4.94854
G1 X118.299 Y140.497 E4.97479
G1 X117.784 Y139.898 E5.00107
G1 X117.333 Y139.25 E5.02733
G1 X116.949 Y138.559 E5.05362
G1 X116.637 Y137.834 E5.07987
G1 X116.4 Y137.081 E5.10613
G1 X116.241 Y136.307 E5.13241
G1 X116.16 Y135.522 E5.15866
G1 X116.15 Y135.12 E5.17203
G1 X116.15 Y121.18 E5.63568
G1 X89.25 Y121.18 E6.53037
G1 X88.461 Y121.14 E6.55665
G1 X87.681 Y121.021 E6.58289
G1 X86.916 Y120.823 E6.60918
G1 X86.176 Y120.549 E6.63542
G1 X85.467 Y120.201 E6.66169
G1 X84.796 Y119.783 E6.68798
G1 X84.172 Y119.3 E6.71423
G1 X83.599 Y118.757 E6.74049
G1 X83.084 Y118.158 E6.76676
G1 X82.633 Y117.51 E6.79302
G1 X82.249 Y116.819 E6.81931
G1 X81.937 Y116.094 E6.84556
G1 X81.7 Y115.341 E6.87182
G1 X81.541 Y114.567 E6.8981
G1 X81.46 Y113.782 E6.92435
G1 X81.45 Y113.38 E6.93772
G1 X81.45 Y107.296 E7.14008
G0 F6000 X81.85 Y107.296
G1 F1200 X81.89 Y106.528 E7.16566
G1 X82.009 Y105.768 E7.19124
G1 X82.207 Y105.025 E7.21682
G1 X82.481 Y104.306 E7.24241
G1 X82.828 Y103.62 E7.26798
G1 X83.244 Y102.973 E7.29356
G1 X83.725 Y102.373 E7.31914
G1 X84.381 Y101.724 E7.34983
G1 X110.032 Y79.308 E8.48285
G1 X110.636 Y78.833 E8.50841
G1 X111.287 Y78.423 E8.534
G1 X111.977 Y78.082 E8.55959
G1 X112.698 Y77.815 E8.58517
G1 X113.443 Y77.625 E8.61074
G1 X114.204 Y77.513 E8.63632
G1 X114.903 Y77.48 E8.6596
G1 X118.452 Y77.481 E8.77764
G1 X118.871 Y77.503 E8.79159
G1 X119.25 Y77.481 E8.80422
G1 X130.25 Y77.481 E9.17008
G1 X131.018 Y77.521 E9.19566
G1 X131.778 Y77.64 E9.22124
G1 X132.521 Y77.838 E9.24682
G1 X133.24 Y78.112 E9.27241
G1 X133.926 Y78.459 E9.29798
G1 X134.573 Y78.875 E9.32356
G1 X135.173 Y79.356 E9.34914
G1 X135.72 Y79.897 E9.37473
G1 X136.208 Y80.492 E9.40032
G1 X136.631 Y81.134 E9.4259
G1 X136.986 Y81.817 E9.4515
G1 X137.267 Y82.532 E9.47705
G1 X137.473 Y83.274 E9.50266
G1 X137.601 Y84.032 E9.52823
G1 X137.65 Y84.881 E9.55651
G1 X137.65 Y87.217 E9.63421
G1 X137.724 Y87.396 E9.64065
G1 X137.943 Y88.133 E9.66622
G1 X138.085 Y88.889 E9.69181
G1 X138.15 Y89.87 E9.72451
G1 X138.15 Y135.12 E11.22953
G1 X138.11 Y135.888 E11.25511
G1 X137.991 Y136.648 E11.28069
G1 X137.793 Y137.391 E11.30627
G1 X137.519 Y138.11 E11.33186
G1 X137.172 Y138.796 E11.35743
G1 X136.756 Y139.443 E11.38301
G1 X136.275 Y140.043 E11.40859
G1 X135.734 Y140.59 E11.43418
G1 X135.139 Y141.078 E11.45977
G1 X134.497 Y141.501 E11.48534
G1 X133.814 Y141.856 E11.51095
G1 X133.099 Y142.137 E11.5365
G1 X132.357 Y142.343 E11.56211
G1 X131.599 Y142.471 E11.58768
G1 X130.75 Y142.52 E11.61596
G1 X123.95 Y142.52 E11.84213
G1 X123.182 Y142.48 E11.86771
G1 X122.422 Y142.361 E11.8933
G1 X121.679 Y142.163 E11.91887
G1 X120.96 Y141.889 E11.94446
G1 X120.274 Y141.542 E11.97003
G1 X119.627 Y141.126 E11.99562
G1 X119.027 Y140.645 E12.02119
G1 X118.48 Y140.104 E12.04678
G1 X117.992 Y139.509 E12.07238
G1 X117.569 Y138.867 E12.09795
G1 X117.214 Y138.184 E12.12355
G1 X116.933 Y137.469 E12.1491
G1 X116.727 Y136.727 E12.17471
G1 X116.599 Y135.969 E12.20028
G1 X116.55 Y135.12 E12.22857
G1 X116.55 Y120.78 E12.70552
G1 X89.25 Y120.78 E13.61352
G1 X88.482 Y120.74 E13.6391
G1 X87.722 Y120.621 E13.66468
G1 X86.979 Y120.423 E13.69026
G1 X86.26 Y120.149 E13.71585
G1 X85.574 Y119.802 E13.74142
G1 X84.927 Y119.386 E13.767
G1 X84.327 Y118.905 E13.79258
G1 X83.78 Y118.364 E13.81817
G1 X83.292 Y117.769 E13.84376
G1 X82.869 Y117.127 E13.86933
G1 X82.514 Y116.444 E13.89493
G1 X82.233 Y115.729 E13.92049
G1 X82.027 Y114.987 E13.9461
G1 X81.899 Y114.229 E13.97167
G1 X81.85 Y113.38 E13.99995
G1 X81.85 Y107.296 E14.20231
G0 F6000 X82.25 Y107.296
G1 F1200 X82.29 Y106.549 E14.22719
G1 X82.409 Y105.811 E14.25205
G1 X82.607 Y105.089 E14.27695
G1 X82.88 Y104.393 E14.30182
G1 X83.227 Y103.73 E14.32671
G1 X83.642 Y103.107 E14.3516
G1 X84.121 Y102.533 E14.37647
G1 X84.644 Y102.025 E14.40072
G1 X110.295 Y79.609 E15.53374
G1 X110.884 Y79.148 E15.55862
G1 X111.518 Y78.752 E15.58348
G1 X112.192 Y78.426 E15.60838
G1 X112.896 Y78.173 E15.63326
G1 X113.623 Y77.998 E15.65813
G1 X114.365 Y77.901 E15.68302
G1 X114.903 Y77.88 E15.70093
G1 X118.452 Y77.881 E15.81897
G1 X118.777 Y77.898 E15.82979
G1 X119.25 Y77.881 E15.84554
G1 X130.25 Y77.881 E16.2114
G1 X130.997 Y77.921 E16.23628
G1 X131.735 Y78.04 E16.26114
G1 X132.457 Y78.238 E16.28604
G1 X133.153 Y78.511 E16.31091
G1 X133.816 Y78.858 E16.3358
G1 X134.439 Y79.273 E16.36069
G1 X135.013 Y79.752 E16.38556
G1 X135.534 Y80.289 E16.41044
G1 X135.993 Y80.879 E16.43531
G1 X136.388 Y81.515 E16.46021
G1 X136.712 Y82.189 E16.48508
G1 X136.962 Y82.894 E16.50996
G1 X137.136 Y83.622 E16.53486
G1 X137.231 Y84.364 E16.55974
G1 X137.25 Y84.881 E16.57694
G1 X137.25 Y87.297 E16.6573
G1 X137.425 Y87.763 E16.67386
G1 X137.612 Y88.487 E16.69873
G1 X137.72 Y89.227 E16.7236
G1 X137.75 Y89.87 E16.74501
G1 X137.75 Y135.12 E18.25003
G1 X137.71 Y135.867 E18.27491
G1 X137.591 Y136.605 E18.29977
G1 X137.393 Y137.327 E18.32467
G1 X137.12 Y138.023 E18.34954
G1 X136.773 Y138.686 E18.37443
G1 X136.358 Y139.309 E18.39933
G1 X135.879 Y139.883 E18.42419
G1 X135.342 Y140.404 E18.44908
G1 X134.752 Y140.863 E18.47394
G1 X134.116 Y141.258 E18.49884
G1 X133.442 Y141.582 E18.52372
G1 X132.737 Y141.832 E18.54859
G1 X132.009 Y142.006 E18.57349
G1 X131.267 Y142.101 E18.59837
G1 X130.75 Y142.12 E18.61558
G1 X123.95 Y142.12 E18.84175
G1 X123.203 Y142.08 E18.86663
G1 X122.465 Y141.961 E18.89149
G1 X121.743 Y141.763 E18.91639
G1 X121.047 Y141.49 E18.94126
G1 X120.384 Y141.143 E18.96615
G1 X119.761 Y140.728 E18.99104
G1 X119.187 Y140.249 E19.01591
G1 X118.666 Y139.712 E19.04079
G1 X118.207 Y139.122 E19.06566
G1 X117.812 Y138.486 E19.09056
G1 X117.488 Y137.812 E19.11543
G1 X117.238 Y137.107 E19.14031
G1 X117.064 Y136.379 E19.16521
G1 X116.969 Y135.637 E19.19009
G1 X116.95 Y135.12 E19.20729
G1 X116.95 Y120.38 E19.69755
G1 X89.25 Y120.38 E20.61885
G1 X88.503 Y120.34 E20.64373
G1 X87.765 Y120.221 E20.6686
G1 X87.043 Y120.023 E20.6935
G1 X86.347 Y119.75 E20.71836
G1 X85.684 Y119.403 E20.74325
G1 X85.061 Y118.988 E20.76815
G1 X84.487 Y118.509 E20.79302
G1 X83.966 Y117.972 E20.8179
G1 X83.507 Y117.382 E20.84276
G1 X83.112 Y116.746 E20.86766
G1 X82.788 Y116.072 E20.89254
G1 X82.538 Y115.367 E20.91742
G1 X82.364 Y114.639 E20.94231
G1 X82.269 Y113.897 E20.96719
G1 X82.25 Y113.38 E20.9844
G1 X82.25 Y107.296 E21.18675
G0 F6000 X82.65 Y107.296
G1 F1200 X82.69 Y106.571 E21.2109
G1 X82.809 Y105.854 E21.23508
G1 X83.007 Y105.155 E21.25924
G1 X83.28 Y104.482 E21.2834
G1 X83.625 Y103.843 E21.30755
G1 X84.039 Y103.246 E21.33171
G1 X84.515 Y102.698 E21.35586
G1 X84.907 Y102.326 E21.37383
G1 X110.558 Y79.91 E22.50685
G1 X111.13 Y79.463 E22.531
G1 X111.749 Y79.082 E22.55517
G1 X112.405 Y78.77 E22.57933
G1 X113.091 Y78.533 E22.60347
G1 X113.8 Y78.373 E22.62765
G1 X114.521 Y78.291 E22.65178
G1 X114.903 Y78.28 E22.66449
G1 X118.452 Y78.281 E22.78253
G1 X118.898 Y78.306 E22.79739
G1 X119.25 Y78.281 E22.80913
G1 X130.25 Y78.281 E23.17499
G1 X130.975 Y78.321 E23.19914
G1 X131.692 Y78.44 E23.22331
G1 X132.391 Y78.638 E23.24747
G1 X133.064 Y78.911 E23.27163
G1 X133.703 Y79.256 E23.29578
G1 X134.3 Y79.67 E23.31995
G1 X134.848 Y80.146 E23.34409
G1 X135.341 Y80.68 E23.36826
G1 X135.771 Y81.265 E23.39241
G1 X136.135 Y81.894 E23.41658
G1 X136.428 Y82.559 E23.44075
G1 X136.646 Y83.252 E23.46491
G1 X136.786 Y83.964 E23.48905
G1 X136.85 Y84.881 E23.51962
G1 X136.85 Y87.361 E23.60211
G1 X136.885 Y87.437 E23.60489
G1 X137.115 Y88.126 E23.62905
G1 X137.268 Y88.836 E23.65321
G1 X137.35 Y89.87 E23.68771
G1 X137.35 Y135.12 E25.19273
G1 X137.31 Y135.845 E25.21688
G1 X137.191 Y136.562 E25.24105
G1 X136.993 Y137.261 E25.26521
G1 X136.72 Y137.934 E25.28937
G1 X136.375 Y138.573 E25.31352
G1 X135.961 Y139.17 E25.33769
G1 X135.485 Y139.718 E25.36183
G1 X134.951 Y140.211 E25.386
G1 X134.366 Y140.641 E25.41015
G1 X133.737 Y141.005 E25.43432
G1 X133.072 Y141.298 E25.45849
G1 X132.379 Y141.516 E25.48265
G1 X131.667 Y141.656 E25.50679
G1 X130.75 Y141.72 E25.53736
G1 X123.95 Y141.72 E25.76353
G1 X123.225 Y141.68 E25.78768
G1 X122.508 Y141.561 E25.81185
G1 X121.809 Y141.363 E25.83602
G1 X121.136 Y141.09 E25.86017
G1 X120.497 Y140.745 E25.88433
G1 X119.9 Y140.331 E25.90849
G1 X119.352 Y139.855 E25.93263
G1 X118.859 Y139.321 E25.95681
G1 X118.429 Y138.736 E25.98095
G1 X118.065 Y138.107 E26.00512
G1 X117.772 Y137.442 E26.02929
G1 X117.554 Y136.749 E26.05346
G1 X117.414 Y136.037 E26.07759
G1 X117.35 Y135.12 E26.10817
G1 X117.35 Y119.98 E26.61172
G1 X89.25 Y119.98 E27.54633
G1 X88.525 Y119.94 E27.57048
G1 X87.808 Y119.821 E27.59466
G1 X87.109 Y119.623 E27.61882
G1 X86.436 Y119.35 E27.64298
G1 X85.797 Y119.005 E27.66713
G1 X85.2 Y118.591 E27.69129
G1 X84.652 Y118.115 E27.71544
G1 X84.159 Y117.581 E27.73961
G1 X83.729 Y116.996 E27.76376
G1 X83.365 Y116.367 E27.78793
G1 X83.072 Y115.702 E27.8121
G1 X82.854 Y115.009 E27.83626
G1 X82.714 Y114.297 E27.86039
G1 X82.65 Y113.38 E27.89097
G1 X82.65 Y107.296 E28.09332
G0 F6000 X83.05 Y107.296
G1 F1200 X83.09 Y106.593 E28.11674
G1 X83.209 Y105.899 E28.14016
G1 X83.407 Y105.224 E28.16356
G1 X83.679 Y104.575 E28.18696
G1 X84.024 Y103.961 E28.21039
G1 X84.435 Y103.39 E28.23379
G1 X84.909 Y102.869 E28.25721
G1 X85.17 Y102.627 E28.26905
G1 X110.821 Y80.211 E29.40207
G1 X111.377 Y79.779 E29.42549
G1 X111.978 Y79.412 E29.44891
G1 X112.616 Y79.116 E29.47231
G1 X113.285 Y78.894 E29.49575
G1 X113.974 Y78.75 E29.51916
G1 X114.903 Y78.68 E29.55015
G1 X118.452 Y78.681 E29.66819
G1 X118.811 Y78.701 E29.68015
G1 X119.25 Y78.681 E29.69476
G1 X130.25 Y78.681 E30.06062
G1 X130.953 Y78.721 E30.08404
G1 X131.647 Y78.84 E30.10746
G1 X132.322 Y79.038 E30.13086
G1 X132.971 Y79.31 E30.15426
G1 X133.585 Y79.655 E30.17769
G1 X134.156 Y80.066 E30.20109
G1 X134.677 Y80.54 E30.22452
G1 X135.141 Y81.07 E30.24794
G1 X135.541 Y81.649 E30.27135
G1 X135.873 Y82.27 E30.29477
G1 X136.133 Y82.924 E30.31818
G1 X136.317 Y83.604 E30.34161
G1 X136.423 Y84.3 E30.36503
G1 X136.45 Y84.881 E30.38437
G1 X136.45 Y87.457 E30.47005
G1 X136.597 Y87.808 E30.48271
G1 X136.793 Y88.484 E30.50612
G1 X136.911 Y89.178 E30.52953
G1 X136.95 Y89.87 E30.55258
G1 X136.95 Y135.12 E32.0576
G1 X136.91 Y135.823 E32.08102
G1 X136.791 Y136.517 E32.10444
G1 X136.593 Y137.192 E32.12784
G1 X136.321 Y137.841 E32.15124
G1 X135.976 Y138.455 E32.17467
G1 X135.565 Y139.026 E32.19807
G1 X135.091 Y139.547 E32.2215
G1 X134.561 Y140.011 E32.24492
G1 X133.982 Y140.411 E32.26833
G1 X133.361 Y140.743 E32.29175
G1 X132.707 Y141.003 E32.31516
G1 X132.027 Y141.187 E32.33859
G1 X131.331 Y141.293 E32.36201
G1 X130.75 Y141.32 E32.38135
G1 X123.95 Y141.32 E32.60752
G1 X123.247 Y141.28 E32.63094
G1 X122.553 Y141.161 E32.65436
G1 X121.878 Y140.963 E32.67776
G1 X121.229 Y140.691 E32.70116
G1 X120.615 Y140.346 E32.72459
G1 X120.044 Y139.935 E32.74798
G1 X119.523 Y139.461 E32.77141
G1 X119.059 Y138.931 E32.79484
G1 X118.659 Y138.352 E32.81825
G1 X118.327 Y137.731 E32.84167
G1 X118.067 Y137.077 E32.86508
G1 X117.883 Y136.397 E32.88851
G1 X117.777 Y135.701 E32.91192
G1 X117.75 Y135.12 E32.93127
G1 X117.75 Y119.58 E33.44813
G1 X89.25 Y119.58 E34.39604
G1 X88.547 Y119.54 E34.41946
G1 X87.853 Y119.421 E34.44288
G1 X87.178 Y119.223 E34.46628
G1 X86.529 Y118.951 E34.48968
G1 X85.915 Y118.606 E34.51311
G1 X85.344 Y118.195 E34.53651
G1 X84.823 Y117.721 E34.55994
G1 X84.359 Y117.191 E34.58336
G1 X83.959 Y116.612 E34.60677
G1 X83.627 Y115.991 E34.63019
G1 X83.367 Y115.337 E34.6536
G1 X83.183 Y114.657 E34.67703
G1 X83.077 Y113.961 E34.70045
G1 X83.05 Y113.38 E34.71979
G1 X83.05 Y107.296 E34.92215
G0 F6000 X83.45 Y107.296
G1 F1200 X83.49 Y106.616 E34.9448
G1 X83.609 Y105.946 E34.96743
G1 X83.806 Y105.294 E34.99009
G1 X84.078 Y104.67 E35.01273
G1 X84.422 Y104.082 E35.03539
G1 X84.832 Y103.538 E35.05804
G1 X85.433 Y102.929 E35.0865
G1 X111.084 Y80.513 E36.21952
G1 X111.623 Y80.095 E36.24221
G1 X112.206 Y79.744 E36.26484
G1 X112.826 Y79.464 E36.28747
G1 X113.475 Y79.258 E36.31011
G1 X114.144 Y79.13 E36.33277
G1 X114.903 Y79.08 E36.35807
G1 X118.452 Y79.081 E36.47611
G1 X118.913 Y79.108 E36.49147
G1 X119.25 Y79.081 E36.50271
G1 X130.25 Y79.081 E36.86857
G1 X130.93 Y79.121 E36.89123
G1 X131.6 Y79.24 E36.91386
G1 X132.252 Y79.437 E36.93652
G1 X132.876 Y79.709 E36.95916
G1 X133.464 Y80.053 E36.98182
G1 X134.008 Y80.463 E37.00447
G1 X134.499 Y80.934 E37.0271
G1 X134.933 Y81.459 E37.04976
G1 X135.302 Y82.031 E37.0724
G1 X135.601 Y82.643 E37.09505
G1 X135.826 Y83.285 E37.11768
G1 X135.975 Y83.95 E37.14034
G1 X136.05 Y84.881 E37.17141
G1 X136.05 Y87.517 E37.25908
G1 X136.297 Y88.174 E37.28243
G1 X136.457 Y88.836 E37.30508
G1 X136.539 Y89.512 E37.32773
G1 X136.55 Y89.87 E37.33964
G1 X136.55 Y135.12 E38.84466
G1 X136.51 Y135.8 E38.86732
G1 X136.391 Y136.47 E38.88995
G1 X136.194 Y137.122 E38.91261
G1 X135.922 Y137.746 E38.93525
G1 X135.578 Y138.334 E38.95791
G1 X135.168 Y138.878 E38.98056
G1 X134.697 Y139.369 E39.00319
G1 X134.172 Y139.803 E39.02585
G1 X133.6 Y140.172 E39.04849
G1 X132.988 Y140.471 E39.07114
G1 X132.346 Y140.696 E39.09377
G1 X131.681 Y140.845 E39.11643
G1 X130.75 Y140.92 E39.1475
G1 X123.95 Y140.92 E39.37367
G1 X123.27 Y140.88 E39.39633
G1 X122.6 Y140.761 E39.41896
G1 X121.948 Y140.564 E39.44161
